/* XPM */
static char *f21f900874aa4587a41802fe0e8c96dbnsOe03PlFaIvEIQi[] = {
/* columns rows colors chars-per-pixel */
"64 64 194 2 ",
"   c #581D01",
".  c #472003",
"X  c #5C2603",
"o  c #5C2903",
"O  c #562406",
"+  c #5F3501",
"@  c #582210",
"#  c #652502",
"$  c #692402",
"%  c #652C03",
"&  c #6C2C02",
"*  c #6A2509",
"=  c #66290A",
"-  c #653100",
";  c #6E3501",
":  c #6D3A01",
">  c #6A3809",
",  c #723601",
"<  c #743A02",
"1  c #7B3C05",
"2  c #74330C",
"3  c #743A09",
"4  c #7B3C09",
"5  c #6B2A17",
"6  c #6B2B18",
"7  c #612415",
"8  c #613716",
"9  c #743A13",
"0  c #662F22",
"q  c #6B4008",
"w  c #7C4204",
"e  c #794709",
"r  c #77563A",
"t  c #785546",
"y  c #7D5850",
"u  c #7C664E",
"i  c #7D665E",
"p  c #803D05",
"a  c #854806",
"s  c #884804",
"d  c #824600",
"f  c #924E08",
"g  c #965607",
"h  c #9B5F1B",
"j  c #9D7803",
"k  c #9E6010",
"l  c #966707",
"z  c #BC6E0A",
"x  c #BB710A",
"c  c #B97011",
"v  c #B3761C",
"b  c #A2760C",
"n  c #9A7C21",
"m  c #C47D08",
"M  c #D67F00",
"N  c #885E47",
"B  c #927143",
"V  c #866959",
"C  c #9C7C5E",
"Z  c #857158",
"A  c #886D65",
"S  c #906E66",
"D  c #887066",
"F  c #89766C",
"G  c #997A65",
"H  c #907772",
"J  c #BA8103",
"K  c #BA8F06",
"L  c #B59E03",
"P  c #B99E04",
"I  c #B79E1C",
"U  c #B5A533",
"Y  c #CE8303",
"T  c #D48401",
"R  c #DA8502",
"E  c #DB8902",
"W  c #DB8709",
"Q  c #DA8809",
"!  c #D68800",
"~  c #DF910E",
"^  c #CA8215",
"/  c #D38410",
"(  c #E18A03",
")  c #E3910C",
"_  c #E69E09",
"`  c #E28E11",
"'  c #DBAB10",
"]  c #E9A306",
"[  c #F4AE0C",
"{  c #E3B908",
"}  c #F3B205",
"|  c #F4B907",
" . c #FCBE03",
".. c #F3B10A",
"X. c #FCB909",
"o. c #F7B70C",
"O. c #E3A616",
"+. c #ECB41B",
"@. c #FCAF2C",
"#. c #F5AF2D",
"$. c #FEB22C",
"%. c #FFB327",
"&. c #FEAE32",
"*. c #F5AD38",
"=. c #FEB133",
"-. c #FFB439",
";. c #F7BB3D",
":. c #FDC200",
">. c #FFCA04",
",. c #FFC409",
"<. c #F0C206",
"1. c #F5D20A",
"2. c #F9D907",
"3. c #FEC012",
"4. c #F8DB1A",
"5. c #E9C20A",
"6. c #FBEE03",
"7. c #FCE50B",
"8. c #F6E309",
"9. c #FDF302",
"0. c #FEFD04",
"q. c #FFF60C",
"w. c #FFFD09",
"e. c #FCEE11",
"r. c #FFFB16",
"t. c #F6D321",
"y. c #FDF428",
"u. c #F4E033",
"i. c #FBF935",
"p. c #B18959",
"a. c #928179",
"s. c #9D8469",
"d. c #A68971",
"f. c #BBA172",
"g. c #B9A16B",
"h. c #F4AD40",
"j. c #FBB841",
"k. c #FAEE46",
"l. c #FCFF51",
"z. c #FBF246",
"x. c #637797",
"c. c #647897",
"v. c #677B99",
"b. c #6B7E9B",
"n. c #7486A3",
"m. c #7A8CA7",
"M. c #7F90AB",
"N. c #958483",
"B. c #9F989C",
"V. c #A89E97",
"C. c #AD9B84",
"Z. c #BCA48F",
"A. c #BDA59E",
"S. c #8192AC",
"D. c #8D9DB5",
"F. c #8F9FB8",
"G. c #8798B1",
"H. c #93A2BA",
"J. c #99A8BF",
"K. c #ACA4A3",
"L. c #AAA4A6",
"P. c #BEA5A1",
"I. c #A9AAB4",
"U. c #B5B5BC",
"Y. c #B8B7BE",
"T. c #BDB8B8",
"R. c #F4DC98",
"E. c #F1DBB3",
"W. c #F1D8BC",
"Q. c #9CAAC1",
"!. c #A0AEC3",
"~. c #A3B0C5",
"^. c #A6B4C9",
"/. c #AAB7CB",
"(. c #AEBACE",
"). c #BDBEC6",
"_. c #BDBDC8",
"`. c #B6B8C2",
"'. c #B0BDD2",
"]. c #BDC1C9",
"[. c #B6C2D5",
"{. c #BAC5D6",
"}. c #BDC8D9",
"|. c #C1C3CC",
" X c #C2C7D2",
".X c #C3C9D5",
"XX c #C0CBDC",
"oX c #FFFDCB",
"OX c #FDFAD2",
"+X c #FEF6E2",
"@X c #FEFDE3",
"#X c #FEFEEC",
"$X c #FDFFF2",
"%X c #FEFFFF",
/* pixels */
"x.n.n.n.n.n.n.n.n.n.n.n.n.n.n.n.n.n.n.n.n.n.n.n.n.n.n.n.n.n.n.n.n.n.n.n.n.n.n.n.n.n.n.n.n.n.S.S.S.S.S.S.S.S.S.S.S.S.S.S.S.S.M.v.",
"c.F.H.H.H.H.H.H.H.H.H.H.H.H.H.H.H.H.H.H.H.H.H.H.H.H.H.H.H.H.H.H.H.H.H.H.H.H.H.H.H.H.H.H.H.H.H.H.H.H.H.H.H.H.H.H.H.H.H.H.H.H.F.n.",
"c.H.Q.!.!.!.!.!.!.!.!.!.!.!.!.!.!.!.!.!.!.!.!.!.!.!.!.!.!.!.J.J.Q.!.!.!.!.!.!.!.!.!.!.!.!.!.!.!.!.!.!.!.!.!.!.!.!.!.!.~.^.~.H.n.",
"c.Q.XXXXXXXXXXXXXXXXXXXXXXXXXXXXXXXXXXXXXXXXXXXXXXXXXXXXXXXX(.^.[.XXXXXXXXXXXXXXXXXXXXXXXXXXXXXXXXXXXXXXXXXXXXXXXXXXXXXXXX[.J.n.",
"c.Q.XXXXXXXXXXXXXXXXXXXXXXXXXXXXXXXXXXXXXXXXXXXXXXXXXXXXXXXX(./.[.XXXXXXXXXXXXXXXXXXXXXXXXXXXXXXXXXXXXXXXXXXXXXXXXXXXXXXXX[.J.n.",
"c.Q.XXXXXXXXXXXXXXXXXXXXXXXXXXXXXXXXXXXXXXXXXXXXXXXXXXXXXXXX(./.[.XXXXXXXXXXXXXXXXXXXXXXXXXXXXXXXXXXXXXXXXXXXXXXXXXXXXXXXX[.J.n.",
"c.Q.XXXXXXXXXXXXXXXXXXXXXXXXXXXXXXXXXXXXXXXXXXXXXXXXU.U.Y.Y.I.I.U.Y.Y.Y.Y.U..XXXXXXXXXXXXXXXXXXXXXXXXXXXXXXXXXXXXXXXXXXXXX[.J.n.",
"c.Q.XXXXXXXXXXXXXXXXXXXXXXXXXXXXXXXXXXXXXXXXXXXXXX.X8 X X o o o o o o o o   V.XXXXXXXXXXXXXXXXXXXXXXXXXXXXXXXXXXXXXXXXXXXX{.J.n.",
"c.Q.XXXXXXXXXXXXXXXXXXXXXXXXXXXXXXXXXXXXXXXXXXXXXX.X, < 3 3 < < < 3 3 < < ; K.XXXXXXXXXXXXXXXXXXXXXXXXXXXXXXXXXXXXXXXXXXXX}.Q.n.",
"c.Q.XXXXXXXXXXXXXXXXXXXXXXXXXXXXXXXXXXXX}.XXXXXXXX.X# & & & & & & & ; ; ; % L.XXXXXXXXXXXXXXXX.XXXXXXXXXXXXXXXXXXXXXXXXXXXXXQ.n.",
"c.Q.XXXXXXXXXXXXXXXXXXXXXXXXXXXXXXXXXXXX}.XX X X.X|.G G G C n j j b l g g f C. X.X X.XXXXXXXXX.XXXXXXXXXXXXXXXXXXXXXXXXXXXXXQ.n.",
"c.Q.XXXXXXXXXXXXXXXXXXXXXXXXXXXXXXXXXXXXXX`.. 8 O G %X%X%X$Xl.0.0.r.5.E ( ) v o = = t XXXXXXXXXXXXXXXXXXXXXXXXXXXXXXXXXXXXXXQ.n.",
"c.Q.XXXXXXXXXXXXXXXXXXXXXXXXXXXXXXXXXXXX}.).o e - C %X%X%X#Xz.9.9.q.{ R R R c < 3 2 y XXXXXXXXXXXXXXXXXXXXXXXXXXXXXXXXXXXXXXQ.n.",
"c.Q.XXXXXXXXXXXXXXXXXXXXXXXXXXXXXXXXXXXXXX_.@ 9 % G %X%X%X$Xk.9.9.q.{ T R E c ; > 2 y XXXXXXXXXXXXXXXXXXXXXXXXXXXXXXXXXXXXXXQ.n.",
"c.Q.XXXXXXXXXXXXXXXXXXXXXXXXXXXXXXXXXXXXXXT.9 e e p.@X+X+XOXk.6.6.e.{ E E E m w w p N .XXXXXXXXXXXXXXXXXXXXXXXXXXXXXXXXXXXXXQ.n.",
"c.Q.XXXXXXXXXXXXXXXXXXXXXXXXXXXXXXF u Z u U e.8.7.4.;.j.j.;.3.:.:.:.:. .,.,.[ Y Y R / B V V r ].XXXXXXXXXXXXXXXXXXXXXXXXXXXXQ.n.",
"c.Q.XXXXXXXXXXXXXXXXXXXXXXXXXXXXXXV + : O L w.9.9.2.@.&.$.$.X. . .:.:.:.:.:...! E R Q w - ; X ).XXXXXXXXXXXXXXXXXXXXXXXXXXXXQ.n.",
"c.Q.XXXXXXXXXXXXXXXXXXXXXXXXXXXXXXD > : X L w.9.9.4.&.=.=.$.X.:.:.:.:.:.:.:.[ R R R W a ; < # ).XXXXXXXXXXXXXXXXXXXXXXXXXXXXQ.n.",
"c.Q.XXXXXXXXXXXXXXXXXXXXXXXXXXXXXXD > < # I i.i.i.u.@.=.=.@.3.:.:.:.:.:.:.:.[ R R R W a ; < # ).XXXXXXXXXXXXXXXXXXXXXXXXXXXXQ.n.",
"c.Q.XXXXXXXXXXXXXXXXXXXXXXXXXXXXXXD > < * f.oXoXOXR.Q ) ` ) X.:.:.:.:.:.:.:.[ R R R W a ; < # ).XXXXXXXXXXXXXXXXXXXXXXXXXXXXQ.n.",
"c.Q.XXXXXXXXXXXXXXXXXXXXXXXXXXXXXXD ; < * P.%X%X%XW.Y R R R X.:.:.:.:.:.:.:...R R R W s ; < $ ).XXXXXXXXXXXXXXXXXXXXXXXXXXXXQ.n.",
"c.Q.XXXXXXXXXXXXXXXXXXXXXXXXXXXX}.D > < * A.%X%X%XW.T E R E X.:.:.:.:.:.:.:...R R R W s ; < $ ).XXXXXXXXXXXXXXXXXXXXXXXXXXXXQ.n.",
"c.Q.XXXXXXXXXXXXXXXXXXXXXXXXXXXX}.D ; < * A.%X%X%XE.T E R E X.:.:.:.:.:.:.:...R R R Q s ; < $ ).XXXXXXXXXXXXXXXXXXXXXXXXXXXXQ.n.",
"c.Q.XXXXXXXXXXXXXXXXXXXXXXXXXXXX}.D ; < * A.%X%X%XE.T E R E X.:.:.:.:.:.:.:...R R R Q s ; < $ ).XXXXXXXXXXXXXXXXXXXXXXXXXXXXQ.n.",
"c.Q.XXXXXXXXXXXXXXXXXXXXXXXXXXXXXXD ; < * A.%X%X%XE.M R R E X.:.:.:.:.:.:.:...R R R Q s ; < $ ).XXXXXXXXXXXXXXXXXXXXXXXXXXXX!.n.",
"c.Q.XXXXXXXXXXXXXXXXXXXXXXXXXXXXXXD ; < * A.%X%X%XE.M R R E X.:.:.:.:.:.:.:...R R R Q s ; < $ ).XXXXXXXXXXXXXXXXXXXXXXXXXXXX!.n.",
"c.Q.XXXXXXXXXXXXXXXXXXXXXXXXXXXXXXD ; < * A.%X%X%XE.M R R E X.:.:.:.:.:.:.:...R R R Q s ; < $ ).XXXXXXXXXXXXXXXXXXXXXXXXXXXX!.n.",
"c.Q.XXXXXXXXXXXXXXXXXXXXXXXXXXXXXXD ; < * A.%X%X%XE.M R R E X.:.:.:.:.:.:.:...R R R Q s ; < $ ).XXXXXXXXXXXXXXXXXXXXXXXXXXXX!.n.",
"c.Q.XXXXXXXXXXXXXXXXXXXXXXXXXXXXXXD ; < * A.%X%X%XE.M R R E X.:.:.:.:.:.:.:...R R R Q s ; < $ ).XXXXXXXXXXXXXXXXXXXXXXXXXXXX!.n.",
"c.Q.XXXXXXXXXXXXXXXXXXXXXXXXXXXXXXD ; < * A.%X%X%XE.M R R E X.:.:.:.:.:.:.:...R R R Q s ; < $ ).XXXXXXXXXXXXXXXXXXXXXXXXXXXX!.n.",
"m.H.Q.Q.Q.Q.Q.Q.Q.Q.Q.Q.Q.Q.Q.Q.Q.i ; < * A.%X%X%XE.M R R E X.:.:.:.:.:.:.:...R R R Q s ; < $ I.Q.Q.Q.Q.Q.Q.Q.Q.Q.Q.Q.Q.Q.Q.J.G.",
"c.J.[.[.[.[.[.[.[.[.[.[.[.[.[.[.[.A ; < * A.%X%X%XE.M R R E X.:.:.:.:.:.:.:...R R R Q s ; < $ `.[.[.[.[.[.[.[.[.[.[.[.[.[.[.Q.m.",
"c.Q.XXXXXXXXXXXXXXXXXXXXXXXXXXXXXXD ; < * A.%X%X%XE.T R R E X.:.:.:.:.:.:.:...T R R Q s ; < $ ).XXXXXXXXXXXXXXXXXXXXXXXXXXXX!.n.",
"c.Q.XXXXXXXXXXXXXXXXXXXXXXXXXXXXXXD ; < * A.%X%X%XE.T R R E X.:.:.:.:.:.:.:...T R R Q s ; < $ ).XXXXXXXXXXXXXXXXXXXXXXXXXXXX!.n.",
"v.D.XXXXXXXXXXXXXXXXXXXXXXXXXXXXXXD ; < = P.%X%X%XE.R R R E X.:.:.:.:.:.:.:...R R R Q s ; < $ ).XXXXXXXXXXXXXXXXXXXXXXXXXXXX!.n.",
"v.D.XXXXXXXXXXXXXXXXXXXXXXXXXXXXXXD ; < = Z.#X@X@XR.R R R E X.:.:.:.:.:.:.:...R R R Q s ; < $ ).XXXXXXXXXXXXXXXXXXXXXXXXXXXX!.n.",
"v.D.XXXXXXXXXXXXXXXXXXXXXXXXXXXXXXD ; < * I i.y.y.t.R E R E X.:.:.:.:.:.:.:...R R R Q s ; < $ ).XXXXXXXXXXXXXXXXXXXXXXXXXXXX!.n.",
"v.D.XXXXXXXXXXXXXXXXXXXXXXXXXXXXXXD ; < * P 0.9.9.1.R E R E X.:.:.:.:.:.:.:...R R R Q s ; < $ ).XXXXXXXXXXXXXXXXXXXXXXXXXXXX~.n.",
"v.D.XXXXXXXXXXXXXXXXXXXXXXXXXXXX.XD ; < $ P w.6.q.1.R R R R X.:.:.:.:.:.:.:...R R R Q s ; < $ ).XXXXXXXXXXXXXXXXXXXXXXXXXXXX^.n.",
"v.D.XXXXXXXXXXXXXXXXXXXXXXXXXXXX.XD ; < $ L 0.6.9.1.R R R E X.:.:.:.:.:.:.:...R R R Q s ; < $ ).XXXXXXXXXXXXXXXXXXXXXXXXXXXX/.n.",
"v.D.XXXXXXXXXXXXXXXXXXXXXXXXXXXXXXD ; < $ L 0.9.9.1.T R R E X.:.:.:.:.:.:.:...R R R Q s ; < $ ).XXXXXXXXXXXXXXXXXXXXXXXXXXXX/.n.",
"v.D.XXXXXXXXXXXXXXXXXXXXXXXXXXXXXXD ; < $ L 0.9.9.1.T R R E X.:.:.:.:.:.:.:...R R R Q s ; < $ ).XXXXXXXXXXXXXXXXXXXXXXXXXXXX/.n.",
"v.D.XXXXXXXXXXXXXXXXXXXXXXXXXXXXXXD ; < # P 0.9.9.1.R R R E X.:.:.:.:.:.:.:...R R R Q s ; < $ ).XXXXXXXXXXXXXXXXXXXXXXXXXXXX/.n.",
"v.D.XXXXXXXXXXXXXXXXXXXXXXXXXXXXXXD ; < # P w.9.q.1.R R R E X.:.:.:.:.:.:.:...R R R Q s ; < $ ).XXXXXXXXXXXXXXXXXXXXXXXXXXXX/.n.",
"v.D.XXXXXXXXXXXXXXXXXXXXXXXXXXXXXXD ; < # K 7.2.2.<.R R R E X.:.:.:.:.:.:.:...R R R Q s ; < $ ).XXXXXXXXXXXXXXXXXXXXXXXXXXXX/.n.",
"v.D.XXXXXXXXXXXXXXXXXXXXXXXXXXXXXXD ; < & J >.:.:.} R R R E X.:.:.:.:.:.:.:...R R R Q s ; < $ ).XXXXXXXXXXXXXXXXXXXXXXXXXXXX/.S.",
"v.D.XXXXXXXXXXXXXXXXXXXXXXXXXXXXXXD ; < % J >.:.:.} R R R E X.:.:.:.:.:.:.:...R R R W s ; < $ ).XXXXXXXXXXXXXXXXXXXXXXXXXXXX/.S.",
"v.D.XXXXXXXXXXXXXXXXXXXXXXXXXXXXXXV % > X J 2.:.>.o.T R T R X.:.:.:.:.:.:.:...R E ( Q d % 2   ).XXXXXXXXXXXXXXXXXXXXXXXXXXXX/.S.",
"v.D.XXXXXXXXXXXXXXXXXXXXXXXXXXXXXXB.a.N.N.g.+.' O.O.` ` Q ~ X.:.:.:. ...} | ] m m m ^ s.a.N.H {.XXXXXXXXXXXXXXXXXXXXXXXXXXXX/.S.",
"v.D.XXXXXXXXXXXXXXXXXXXXXXXXXXXXXXXXXXXXXX).o : - k -.&.@.$.X.:.:.,.] T E E x , < , 9 XXXXXXXXXXXXXXXXXXXXXXXXXXXXXXXXXXXXXX/.S.",
"v.D.XXXXXXXXXXXXXXXXXXXXXXXXXXXXXXXXXXXXXX).@ 9 - h =.&.$.$.X.:.:.,._ R R E x ; q 2 0 XXXXXXXXXXXXXXXXXXXXXXXXXXXXXXXXXXXXXX/.S.",
"v.D.XXXXXXXXXXXXXXXXXXXXXXXXXXXXXXXXXXXXXXY.  9 = h -.=.=.%.X.:.:.:.] R R ( z & > 2 6 XXXXXXXXXXXXXXXXXXXXXXXXXXXXXXXXXXXXXX/.S.",
"v.D.XXXXXXXXXXXXXXXXXXXXXXXXXXXXXXXXXXXXXX).V H A d.h.*.*.#.+.o.| o._ Y T / p.V A S F XXXXXXXXXXXXXXXXXXXXXXXXXXXXXXXXXXXXXX/.S.",
"v.D.XXXXXXXXXXXXXXXXXXXXXXXXXXXXXXXXXXXXXXXXXXXXXX X3 w 1 p w w w w w 1 1 > V.XXXXXXXXXXXXXXXXXXXXXXXXXXXXXXXXXXXXXXXXXXXXXX/.S.",
"v.D.XXXXXXXXXXXXXXXXXXXXXXXXXXXXXXXXXXXXXXXXXXXXXX.X- : , , , , : : : , < - K.XXXXXXXXXXXXXXXXXXXXXXXXXXXXXXXXXXXXXXXXXXXXXX/.S.",
"v.D.XXXXXXXXXXXXXXXXXXXXXXXXXXXXXXXXXXXXXXXXXXXXXX.X, 1 1 1 1 4 4 4 4 4 4 ; K.XXXXXXXXXXXXXXXXXXXXXXXXXXXXXXXXXXXXXXXXXXXXXX/.S.",
"v.D.XXXXXXXXXXXXXXXXXXXXXXXXXXXXXXXXXXXXXXXXXXXXXX.X7 6 6 6 6 5 6 6 6 6 6 7 L.XXXXXXXXXXXXXXXXXXXXXXXXXXXXXXXXXXXXXXXXXXXXXX/.S.",
"v.D.XXXXXXXXXXXXXXXXXXXXXXXXXXXXXXXXXXXXXXXXXXXXXXXXXXXXXXXX{.!.'.XXXX}.XXXXXXXXXXXXXXXXXXXXXXXXXXXXXXXXXXXXXXXXXXXXXXXXXXXX/.S.",
"v.D.XXXXXXXXXXXXXXXXXXXXXXXXXXXXXXXXXXXXXXXXXXXXXXXXXXXXXXXX{.!.'.XXXXXXXXXXXXXXXXXXXXXXXXXXXXXXXXXXXXXXXXXXXXXXXXXXXXXXXXXX/.S.",
"v.D.XXXXXXXXXXXXXXXXXXXXXXXXXXXXXXXXXXXXXXXXXXXXXXXXXXXXXXXX{.!.'.XXXXXXXXXXXXXXXXXXXXXXXXXXXXXXXXXXXXXXXXXXXXXXXXXXXXXXXXXX/.S.",
"v.D.XXXXXXXXXXXXXXXXXXXXXXXXXXXXXXXXXXXXXXXXXXXXXXXXXXXXXXXX{.!.'.XXXXXXXXXXXXXXXXXXXXXXXXXXXXXXXXXXXXXXXXXXXXXXXXXXXXXXXXXX/.S.",
"v.D.XXXXXXXXXXXXXXXXXXXXXXXXXXXXXXXXXXXXXXXXXXXXXXXXXXXXXXXX{.!.'.XXXXXXXXXXXXXXXXXXXXXXXXXXXXXXXXXXXXXXXXXXXXXXXXXXXXXXXXXX/.S.",
"v.G././././././././././././././././././././././././././././.^.J.!./././././././././././././././././././././././././././././.Q.M.",
"x.b.n.n.n.n.n.n.n.n.n.n.n.n.n.n.n.n.n.n.n.n.n.n.n.b.b.b.b.b.n.G.b.b.b.b.b.b.b.b.b.b.b.b.b.b.b.b.b.b.b.b.b.b.b.b.b.b.b.b.b.b.v.c."
};
