/* XPM */
static char *cb67475920184bd5ce7248522e3bc65eCXJ3TRLMPUwRcuvw[] = {
/* columns rows colors chars-per-pixel */
"64 64 179 2 ",
"   c #461C02",
".  c #5F1700",
"X  c #5A1E00",
"o  c #592501",
"O  c #552800",
"+  c #5D2B06",
"@  c #56230C",
"#  c #5E2B08",
"$  c #572505",
"%  c #4F2613",
"&  c #5C2712",
"*  c #542D13",
"=  c #6C2303",
"-  c #662C02",
";  c #6B2D01",
":  c #65250D",
">  c #682807",
",  c #702A02",
"<  c #712304",
"1  c #663401",
"2  c #6B3302",
"3  c #673902",
"4  c #6C3C02",
"5  c #6E3C0B",
"6  c #68320F",
"7  c #733B03",
"8  c #783906",
"9  c #753B09",
"0  c #753504",
"q  c #652411",
"w  c #662B15",
"e  c #69352C",
"r  c #8C4E01",
"t  c #88460D",
"y  c #8C5304",
"u  c #8E500C",
"i  c #91530A",
"p  c #92590C",
"a  c #905307",
"s  c #8B4B11",
"d  c #8B5F1F",
"f  c #8A5018",
"g  c #9A5515",
"h  c #965B11",
"j  c #955918",
"k  c #95631F",
"l  c #B86807",
"z  c #B66B09",
"x  c #B86E0B",
"c  c #BA700D",
"v  c #B26616",
"b  c #8C5D25",
"n  c #946324",
"m  c #C77C17",
"M  c #926444",
"N  c #8F6759",
"B  c #8E695E",
"V  c #91665B",
"C  c #906754",
"Z  c #87786F",
"A  c #84766D",
"S  c #8D7D73",
"D  c #887976",
"F  c #D68401",
"G  c #D98502",
"H  c #D78904",
"J  c #DA8B04",
"K  c #DE8708",
"L  c #DE8A0B",
"P  c #DE8C13",
"I  c #E08B07",
"U  c #E18A0A",
"Y  c #E48E15",
"T  c #EE9B1C",
"R  c #E19016",
"E  c #EFA31D",
"W  c #CE8725",
"Q  c #CD8926",
"!  c #CF8528",
"~  c #CC8828",
"^  c #C68B2A",
"/  c #D18721",
"(  c #CA932F",
")  c #F09F20",
"_  c #CAB43D",
"`  c #CAA739",
"'  c #F3A425",
"]  c #FEAE2F",
"[  c #F5AA23",
"{  c #FFB32F",
"}  c #FFAE33",
"|  c #FDB333",
" . c #FFBB33",
".. c #FFB53B",
"X. c #FCBB3C",
"o. c #FCC53E",
"O. c #8F837D",
"+. c #B9A17A",
"@. c #CBAC45",
"#. c #C4AE57",
"$. c #FCC442",
"%. c #FFCA47",
"&. c #FFDD54",
"*. c #FDE756",
"=. c #FDE854",
"-. c #FFE55C",
";. c #FCEA5A",
":. c #FFF75D",
">. c #FAE564",
",. c #FFED62",
"<. c #FAE469",
"1. c #FFF263",
"2. c #F6EB76",
"3. c #FAEA76",
"4. c #FCE979",
"5. c #FFF374",
"6. c #637797",
"7. c #647897",
"8. c #677B99",
"9. c #6B7E9B",
"0. c #7486A3",
"q. c #7A8CA7",
"w. c #7F90AB",
"e. c #9A8C86",
"r. c #948680",
"t. c #9E9188",
"y. c #B7A497",
"u. c #8192AC",
"i. c #9C99A0",
"p. c #8D9DB5",
"a. c #8F9FB8",
"s. c #8798B1",
"d. c #93A2BA",
"f. c #99A8BF",
"g. c #ACA6AA",
"h. c #AFAAAE",
"j. c #A9A3A9",
"k. c #B0ABAF",
"l. c #B2A4A7",
"z. c #AEAAB1",
"x. c #B4AEB3",
"c. c #B7B0B6",
"v. c #B7B2BA",
"b. c #B8B1B9",
"n. c #C8B58F",
"m. c #C7B6AE",
"M. c #C4B9AC",
"N. c #C7B6B3",
"B. c #FEEF81",
"V. c #FCF481",
"C. c #FDF6BE",
"Z. c #9CABC1",
"A. c #A0AEC3",
"S. c #A3B0C5",
"D. c #A6B4C9",
"F. c #AAB7CB",
"G. c #AEBBCF",
"H. c #B9BCC4",
"J. c #B0BDD2",
"K. c #B6C2D5",
"L. c #B9C5D7",
"P. c #BDC8D9",
"I. c #C1C0C4",
"U. c #C3C9D6",
"Y. c #C2CBDA",
"T. c #C0CBDC",
"R. c #C0CBDC",
"E. c #C0C5D0",
"W. c #FDF5C3",
"Q. c #FFFBC7",
"!. c #FFFCD0",
"~. c #FFFCE4",
"^. c #FFFEE5",
"/. c #FFFEE9",
"(. c #FFFFFD",
"). c white",
"_. c #FFFFFF",
"`. c #FFFDFF",
"'. c #FEFFFD",
/* pixels */
"6.0.0.0.0.0.0.0.0.0.0.0.0.0.0.0.0.0.0.0.0.0.0.0.0.0.0.0.0.0.0.0.0.0.0.0.0.0.0.0.0.0.0.0.0.0.u.u.u.u.u.u.u.u.u.u.u.u.u.u.u.u.w.8.",
"7.a.d.d.d.d.d.d.d.d.d.d.d.d.d.d.d.d.d.d.d.d.d.d.d.d.d.d.d.d.d.d.d.d.d.d.d.d.d.d.d.d.d.d.d.d.d.d.d.d.d.d.d.d.d.d.d.d.d.d.d.d.a.0.",
"7.d.Z.A.A.A.A.A.A.A.A.A.A.A.A.A.A.A.A.A.A.A.A.A.A.A.A.A.A.A.f.f.Z.A.A.A.A.A.A.A.A.A.A.A.A.A.A.A.A.A.A.A.A.A.A.A.A.A.A.S.D.S.d.0.",
"7.Z.T.T.T.T.T.T.T.T.T.T.T.T.T.T.T.T.T.T.T.T.T.T.T.T.T.T.T.T.G.D.K.T.T.T.T.T.T.T.T.T.T.T.T.T.T.T.T.T.T.T.T.T.T.T.T.T.T.T.T.K.f.0.",
"7.Z.T.T.T.T.T.T.T.T.T.T.T.T.T.T.T.T.T.T.T.T.T.T.T.T.T.T.T.T.G.F.K.T.T.T.T.T.T.T.T.T.T.T.T.T.T.T.T.T.T.T.T.T.T.T.T.T.T.T.T.K.f.0.",
"7.Z.T.T.T.T.T.T.T.T.T.T.T.T.T.T.T.T.T.T.T.T.T.T.T.T.T.T.T.T.G.F.K.T.T.T.T.T.T.T.T.T.T.T.T.T.T.T.T.T.T.T.T.T.T.T.T.T.T.T.T.K.f.0.",
"7.Z.T.T.T.T.T.T.T.T.T.T.T.T.T.T.T.T.T.T.T.T.T.T.T.T.T.T.T.T.G.F.K.T.T.T.T.T.T.T.T.T.T.T.T.T.T.T.T.T.T.T.T.T.T.T.T.T.T.T.T.K.f.0.",
"7.Z.T.T.T.T.T.T.T.T.T.T.T.T.T.T.T.T.T.T.T.T.T.T.T.H.A S S S Z A S S S S S S Y.T.T.T.T.T.T.T.T.T.T.T.T.T.T.T.T.T.T.T.T.T.T.L.f.0.",
"7.Z.T.T.T.T.T.T.T.T.T.T.T.T.T.T.T.T.T.T.T.T.T.T.T.g.O 3 3 3 3 3 3 3 3 3 1 @ R.T.T.T.T.T.T.T.T.T.T.T.T.T.T.T.T.T.T.T.T.T.T.P.Z.0.",
"7.Z.T.T.T.T.T.T.T.T.T.T.T.T.T.T.T.T.T.T.T.T.T.T.T.z.+ 5 4 4 4 4 4 4 4 4 4 * R.T.T.T.T.T.T.T.T.T.T.T.T.T.T.T.T.T.T.T.T.T.T.T.Z.0.",
"7.Z.T.T.T.T.T.T.T.T.T.T.T.T.T.T.T.T.T.T.T.T.T.T.T.h.$ 2 2 1 1 1 1 1 1 1 1 % R.T.T.T.T.T.T.T.T.T.T.T.T.T.T.T.T.T.T.T.T.T.T.T.Z.0.",
"7.Z.T.T.T.T.T.T.T.T.T.T.T.T.T.T.T.T.T.T.T.H.k.x.k.+.^ W ~ ~ ~ ~ ~ ~ ~ ~ ! ^ y.x.x.h.E.T.T.T.T.T.T.T.T.T.T.T.T.T.T.T.T.T.T.T.Z.0.",
"7.Z.T.T.T.T.T.T.T.T.T.T.T.T.T.T.T.T.T.T.T.r.X ; X Q X.| | | | | | | | ..|  .u o #   g.T.T.T.T.T.T.T.T.T.T.T.T.T.T.T.T.T.T.T.Z.0.",
"7.Z.T.T.T.T.T.T.T.T.T.T.T.T.T.T.T.T.T.T.T.t.2 9 ; W ..] } } } } } } } } }  .h 1 5 # k.T.T.T.T.T.T.T.T.T.T.T.T.T.T.T.T.T.T.T.Z.0.",
"7.Z.T.T.T.T.T.T.T.T.T.T.T.T.T.T.T.T.T.T.R.t.; 7 ; ~ ..] } } } } } } } } } | h 2 8 # k.T.T.T.T.T.T.T.T.T.T.T.T.T.T.T.T.T.T.T.Z.0.",
"7.Z.T.T.T.T.T.T.T.T.T.T.T.T.T.T.T.T.T.T.T.t.; 7 ; ( %.o.o.$.$.$.$.$.$.$.$.%.j ; 8 # k.T.T.T.T.T.T.T.T.T.T.T.T.T.T.T.T.T.T.T.Z.0.",
"7.Z.T.T.T.T.T.T.T.T.T.T.T.T.T.T.T.T.T.T.T.t.; 7 1 @.,.=.;.;.;.;.;.;.;.;.,.,.b ; 7 # k.T.T.T.T.T.T.T.T.T.T.T.T.T.T.T.T.T.T.T.Z.0.",
"7.Z.T.T.T.T.T.T.T.T.T.T.T.T.T.T.T.T.T.T.T.t.; 7 > @.1.=.=.;.;.;.;.;.;.;.-.,.d - 4 # k.T.T.T.T.T.T.T.T.T.T.T.T.T.T.T.T.T.T.T.Z.0.",
"7.Z.T.T.T.T.T.T.T.T.T.T.T.T.T.T.T.T.T.T.T.t.; 7 = @.1.=.=.*.*.*.*.*.*.*.-.;.d ; 4 # k.T.T.T.T.T.T.T.T.T.T.T.T.T.T.T.T.T.T.T.Z.0.",
"7.Z.T.T.T.T.T.T.T.T.T.T.T.T.T.T.T.T.T.T.T.t.; 7 - #.V.2.2.3.3.3.3.3.3.3.4.B.b , 7 # k.T.T.T.T.T.T.T.T.T.T.T.T.T.T.T.T.T.T.T.Z.0.",
"7.Z.T.T.T.T.T.T.T.T.T.T.T.T.T.T.T.T.T.T.T.t.; 7 : n./.~.~.~.~.~.~.~.~.~.~./.C - 7 # k.T.T.T.T.T.T.T.T.T.T.T.T.T.T.T.T.T.T.T.Z.0.",
"7.Z.T.T.T.T.T.T.T.T.T.T.T.T.T.T.T.T.T.T.T.t.; 9 q N._._._._._._._._._._._._.B - 4 # k.T.T.T.T.T.T.T.T.T.T.T.T.T.T.T.T.T.T.T.Z.0.",
"7.Z.T.T.T.T.T.T.T.T.T.T.T.T.T.T.T.T.T.T.T.t.; 8 q m._._._._._._._._._._._._.N ; 7 # k.T.T.T.T.T.T.T.T.T.T.T.T.T.T.T.T.T.T.T.Z.0.",
"7.Z.T.T.T.T.T.T.T.T.T.T.T.T.T.T.T.T.T.T.T.t.; 8 q m._._._._._._._._._._._._.N ; 7 # k.T.T.T.T.T.T.T.T.T.T.T.T.T.T.T.T.T.T.T.Z.0.",
"7.Z.T.T.T.T.T.T.T.T.T.T.T.T.T.T.T.T.T.T.T.t.; 8 : m._._._._._._._._._._._._.V ; 7 # k.T.T.T.T.T.T.T.T.T.T.T.T.T.T.T.T.T.T.T.A.0.",
"7.Z.T.T.T.T.T.T.T.T.T.T.T.T.T.T.T.T.T.T.T.t.; 8 : M._._._._._._._._._._._._.V ; 7 # k.T.T.T.T.T.T.T.T.T.T.T.T.T.T.T.T.T.T.T.A.0.",
"7.Z.T.T.T.T.T.T.T.T.T.T.T.T.T.T.T.T.T.T.T.t.; 8 : M._._._._._._._._._._._._.V ; 7 # k.T.T.T.T.T.T.T.T.T.T.T.T.T.T.T.T.T.T.T.A.0.",
"7.Z.T.T.T.T.T.T.T.T.T.T.T.T.T.T.T.T.T.T.T.t.; 8 : M._._._._._._.(._._._._._.V ; 7 # k.T.T.T.T.T.T.T.T.T.T.T.T.T.T.T.T.T.T.T.A.0.",
"7.Z.T.T.T.T.T.T.T.T.T.T.T.T.T.T.T.T.T.T.T.t.; 7 > n.!.W.W.C.C.C.C.W.W.W.W.Q.M ; 7 # k.T.T.T.T.T.T.T.T.T.T.T.T.T.T.T.T.T.T.T.A.0.",
"7.Z.T.T.T.T.T.T.T.T.T.T.T.T.T.T.T.T.T.T.R.t.; 7 = @.5.>.>.>.>.>.>.>.<.<.>.3.n 2 7 # k.T.T.T.T.T.T.T.T.T.T.T.T.T.T.T.T.T.T.T.A.0.",
"q.d.Z.Z.Z.Z.Z.Z.Z.Z.Z.Z.Z.Z.Z.Z.Z.Z.Z.Z.Z.O.; 7 - _ :.=.=.=.=.=.=.*.*.=.=.;.k ; 7 # i.Z.Z.Z.Z.Z.Z.Z.Z.Z.Z.Z.Z.Z.Z.Z.Z.Z.Z.Z.f.s.",
"7.f.K.K.K.K.K.K.K.K.K.K.K.K.K.K.K.K.K.K.K.e.; 7 - _ 1.;.;.;.;.;.;.;.;.;.;.1.n 1 4 # g.K.K.K.K.K.K.K.K.K.K.K.K.K.K.K.K.K.K.K.Z.q.",
"7.Z.T.T.T.T.T.T.T.T.T.T.T.T.T.T.T.T.T.T.T.t.; 7 ; ` -.&.&.&.&.&.&.&.&.&.&.-.j 1 7 # k.T.P.P.P.T.T.T.T.T.T.T.T.T.T.T.T.T.T.T.A.0.",
"7.Z.T.T.T.T.T.T.T.T.T.T.T.T.T.T.T.T.T.T.T.t.; 7 ; ^ X.| | | | | | | | | | X.g 2 9 # k.T.T.P.T.T.T.T.T.T.T.T.T.T.T.T.T.T.T.T.A.0.",
"8.p.T.T.T.T.T.T.T.T.T.T.T.T.T.T.T.T.T.T.T.t.; 7 , W ..| { | | | | | | | | ..g 2 9 # x.T.T.T.T.T.T.T.T.T.T.T.T.T.T.T.T.T.T.T.A.0.",
"8.p.T.T.T.T.T.T.T.T.T.T.T.T.T.T.T.T.T.T.T.t.; 4 ; W ..{ { } } } } } } } } ..g 1 7 # x.T.T.T.T.T.T.T.T.T.T.T.T.T.T.T.T.T.T.T.A.0.",
"8.p.T.T.T.T.T.T.T.T.T.T.T.T.T.T.T.T.T.T.T.t.; 4 2 W | ] ] } } } } } } } } ..g 3 7 # k.T.T.T.T.T.T.T.T.T.T.T.T.T.T.T.T.T.T.T.A.0.",
"8.p.T.T.T.T.T.T.T.T.T.T.T.T.T.T.T.T.T.T.T.t.2 4 1 c Y L L L L L L L L L P R i 3 8 # k.T.T.T.T.T.T.T.T.T.T.T.T.T.T.T.T.T.T.T.S.0.",
"8.p.T.T.T.T.T.T.T.T.T.T.T.T.T.T.T.T.T.T.T.t.2 4 2 z G F F F F F F F F F F H y 3 7 # k.T.T.T.T.T.T.T.T.T.T.T.T.T.T.T.T.T.T.T.D.0.",
"8.p.T.T.T.T.T.T.T.T.T.T.T.T.T.T.T.T.T.T.T.t.2 3 1 z L F F G G G G G G G F J y 3 7 # k.T.T.T.T.T.T.T.T.T.T.T.T.T.T.T.T.T.T.T.F.0.",
"8.p.T.T.T.T.T.T.T.T.T.T.T.T.T.T.T.T.T.T.T.t.2 4 1 z K F F F F F F F F F F H y 3 7 # k.T.T.T.T.T.T.T.T.T.T.T.T.T.T.T.T.T.T.T.F.0.",
"8.p.T.T.T.T.T.T.T.T.T.T.T.T.T.T.T.T.T.T.T.t.2 4 1 m ) T T T T T T T T T T E p 3 7 # k.T.T.T.T.T.T.T.T.T.T.T.T.T.T.T.T.T.T.T.F.0.",
"8.p.T.T.T.T.T.T.T.T.T.T.T.T.T.T.T.T.T.T.T.t.2 4 1 / | | | } } } } } } | |  .h 3 7 # k.T.T.T.T.T.T.T.T.T.T.T.T.T.T.T.T.T.T.T.F.0.",
"8.p.T.T.T.T.T.T.T.T.T.T.T.T.T.T.T.T.T.T.T.t.2 4 1 / | ] } } } } } } } } | { h 3 7 # k.T.T.T.T.T.T.T.T.T.T.T.T.T.T.T.T.T.T.T.F.0.",
"8.p.T.T.T.T.T.T.T.T.T.T.T.T.T.T.T.T.T.T.T.t.2 7 1 / | | | | | | | | | | | { p 3 7 # k.T.T.T.T.T.T.T.T.T.T.T.T.T.T.T.T.T.T.T.F.0.",
"8.p.T.T.T.T.T.T.T.T.T.T.T.T.T.T.T.T.T.T.T.t.; 4 1 m ' ' ' ' ' ' ' ' ' ' ' [ p 3 7 # k.T.T.T.T.T.T.T.T.T.T.T.T.T.T.T.T.T.T.T.F.u.",
"8.p.T.T.T.T.T.T.T.T.T.T.T.T.T.T.T.T.T.T.T.t.; 4 2 x K G G G G G G G G F H J y 3 7 # k.T.T.T.T.T.T.T.T.T.T.T.T.T.T.T.T.T.T.T.F.u.",
"8.p.T.T.T.T.T.T.T.T.T.T.T.T.T.T.T.T.T.T.T.t.; 4 1 x U G G G G G G G G G H J y 3 7 # k.T.T.T.T.T.T.T.T.T.T.T.T.T.T.T.T.T.T.T.F.u.",
"8.p.T.T.T.T.T.T.T.T.T.T.T.T.T.T.T.T.T.T.T.t.; 4 2 x L G G G G G G G G F F H r 3 7 # k.T.T.T.T.T.T.T.T.T.T.T.T.T.T.T.T.T.T.T.F.u.",
"8.p.T.T.T.T.T.T.T.T.T.T.T.T.T.T.T.T.T.T.T.t.; 4 3 x L G G G G G G G G F F H y 3 7 # k.T.T.T.T.T.T.T.T.T.T.T.T.T.T.T.T.T.T.T.F.u.",
"8.p.T.T.T.T.T.T.T.T.T.T.T.T.T.T.T.T.T.T.T.t.; 4 3 x L G G G G G G G G F F H y 3 7 # k.T.T.T.T.T.T.T.T.T.T.T.T.T.T.T.T.T.T.T.F.u.",
"8.p.T.T.T.T.T.T.T.T.T.T.T.T.T.T.T.T.T.T.T.t.; 4 3 x L G G G G G G G G F F H y 3 7 # k.T.T.T.T.T.T.T.T.T.T.T.T.T.T.T.T.T.T.T.F.u.",
"8.p.T.T.T.T.T.T.T.T.T.T.T.T.T.T.T.T.T.T.T.t.; 7 2 l I G G G G G G G G G G J r 2 8 > k.T.T.T.T.T.T.T.T.T.T.T.T.T.T.T.T.T.T.T.F.u.",
"8.p.T.T.T.T.T.T.T.T.T.T.T.T.T.T.T.T.R.T.T.e.: 6 > v Y U U U I I I I I U L P t & w @ z.T.T.T.T.T.T.T.T.T.T.T.T.T.T.T.T.T.T.T.F.u.",
"8.p.T.T.T.T.T.T.T.T.T.T.T.T.T.T.T.T.T.T.T.R.U.R.U.y.s i i a y y y y y a i f I.U.U.U.Y.T.T.T.T.T.T.T.T.T.T.T.T.T.T.T.T.T.T.T.F.u.",
"8.p.T.T.T.T.T.T.T.T.T.T.T.T.T.T.T.T.T.T.T.T.T.T.T.x.o 4 3 3 3 3 3 3 3 3 3 & T.T.T.T.T.T.T.T.T.T.T.T.T.T.T.T.T.T.T.T.T.T.T.T.F.u.",
"8.p.T.T.T.T.T.T.T.T.T.T.T.T.T.T.T.T.T.T.T.T.T.T.T.k.- 8 7 7 7 7 7 7 7 7 9 w R.T.T.T.T.T.T.T.T.T.T.T.T.T.T.T.T.T.T.T.T.T.T.T.F.u.",
"8.p.T.T.T.T.T.T.T.T.T.T.T.T.T.T.T.T.T.T.T.T.T.T.T.l.. < = = = = = = = = = e R.T.T.T.T.T.T.T.T.T.T.T.T.T.T.T.T.T.T.T.T.T.T.T.F.u.",
"8.p.T.T.T.T.T.T.T.T.T.T.T.T.T.T.T.T.T.T.T.T.T.T.T.U.x.c.b.b.x.j.z.b.b.b.b.v.T.T.T.T.T.T.T.T.T.T.T.T.T.T.T.T.T.T.T.T.T.T.T.T.F.u.",
"8.p.T.T.T.T.T.T.T.T.T.T.T.T.T.T.T.T.T.T.T.T.T.T.T.T.T.T.T.T.L.A.J.T.T.T.T.T.T.T.T.T.T.T.T.T.T.T.T.T.T.T.T.T.T.T.T.T.T.T.T.T.F.u.",
"8.p.T.T.T.T.T.T.T.T.T.T.T.T.T.T.T.T.T.T.T.T.T.T.T.T.T.T.T.T.L.A.J.T.T.T.T.T.T.T.T.T.T.T.T.T.T.T.T.T.T.T.T.T.T.T.T.T.T.T.T.T.F.u.",
"8.p.T.T.T.T.T.T.T.T.T.T.T.T.T.T.T.T.T.T.T.T.T.T.T.T.T.T.T.T.L.A.J.T.T.T.T.T.T.T.T.T.T.T.T.T.T.T.T.T.T.T.T.T.T.T.T.T.T.T.T.T.F.u.",
"8.s.F.F.F.F.F.F.F.F.F.F.F.F.F.F.F.F.F.F.F.F.F.F.F.F.F.F.F.F.D.f.A.F.F.F.F.F.F.F.F.F.F.F.F.F.F.F.F.F.F.F.F.F.F.F.F.F.F.F.F.F.Z.w.",
"6.9.0.0.0.0.0.0.0.0.0.0.0.0.0.0.0.0.0.0.0.0.0.0.0.9.9.9.9.9.0.s.9.9.9.9.9.9.9.9.9.9.9.9.9.9.9.9.9.9.9.9.9.9.9.9.9.9.9.9.9.9.8.7."
};
