/* XPM */
static char *_892d199d82743c8a2e35f423a1ba8210Rtykechaahl0iOd[] = {
/* columns rows colors chars-per-pixel */
"64 64 194 2 ",
"   c #391700",
".  c #4D1B05",
"X  c #531C06",
"o  c #592904",
"O  c #572804",
"+  c #4B271C",
"@  c #5A261C",
"#  c #542C1D",
"$  c #5D2C1C",
"%  c #50321B",
"&  c #503217",
"*  c #632B00",
"=  c #6A2F00",
"-  c #6D3501",
";  c #6E3C00",
":  c #6F3C0B",
">  c #743704",
",  c #733B02",
"<  c #7A3E00",
"1  c #733D0C",
"2  c #783E0C",
"3  c #75340B",
"4  c #6E3D1A",
"5  c #6F3E16",
"6  c #743C12",
"7  c #7F3F1B",
"8  c #7C3A15",
"9  c #473220",
"0  c #5A3127",
"q  c #6D3626",
"w  c #6B440C",
"e  c #714006",
"r  c #714009",
"t  c #6E421B",
"y  c #754112",
"u  c #7C421A",
"i  c #73471B",
"p  c #69422B",
"a  c #774423",
"s  c #745526",
"d  c #6E4432",
"f  c #7C5A3A",
"g  c #745E4A",
"h  c #833C14",
"j  c #833C1A",
"k  c #8F5A00",
"l  c #915700",
"z  c #915C00",
"x  c #9B5A02",
"c  c #9E6900",
"v  c #986702",
"b  c #8D641C",
"n  c #BE7F0D",
"m  c #B47500",
"M  c #82502F",
"N  c #966230",
"B  c #CF7C0D",
"V  c #836448",
"C  c #906F4D",
"Z  c #916F5B",
"A  c #94765B",
"S  c #957B68",
"D  c #8B7A6F",
"F  c #CF810E",
"G  c #D78502",
"H  c #D98603",
"J  c #D68902",
"K  c #DA8902",
"L  c #DB8709",
"P  c #D3880D",
"I  c #DD9003",
"U  c #CD8212",
"Y  c #CE8B1B",
"T  c #D28613",
"R  c #D4841D",
"E  c #D68816",
"W  c #DB9E11",
"Q  c #DC9A1C",
"!  c #E68905",
"~  c #E49719",
"^  c #E39415",
"/  c #DFA014",
"(  c #D5A215",
")  c #E1A206",
"_  c #FEBE01",
"`  c #F5B20C",
"'  c #FFBC0D",
"]  c #F9B70A",
"[  c #E2AC14",
"{  c #F1A01E",
"}  c #F4B413",
"|  c #F9B512",
" . c #F6BB14",
".. c #FABA18",
"X. c #C88521",
"o. c #D79B2A",
"O. c #C28434",
"+. c #D59334",
"@. c #DFA32C",
"#. c #DCAB29",
"$. c #DDA232",
"%. c #F4A524",
"&. c #F7A826",
"*. c #F7A82A",
"=. c #FEAE2F",
"-. c #F6A829",
";. c #FFB525",
":. c #FEB22E",
">. c #F6BF26",
",. c #FEAE32",
"<. c #FFB132",
"1. c #F2BC30",
"2. c #FDC101",
"3. c #FFC30C",
"4. c #FAC909",
"5. c #FDC214",
"6. c #FEC31D",
"7. c #F1C31D",
"8. c #F9C425",
"9. c #BF8646",
"0. c #B5914F",
"q. c #C58C48",
"w. c #CC9444",
"e. c #DFA356",
"r. c #E4A55B",
"t. c #FFBF50",
"y. c #FCB344",
"u. c #C9AE79",
"i. c #FBBE65",
"p. c #EAB776",
"a. c #EDC34C",
"s. c #E2C45B",
"d. c #FAC065",
"f. c #FACB69",
"g. c #F8D77E",
"h. c #647897",
"j. c #6B7E9B",
"k. c #657998",
"l. c #7486A3",
"z. c #7A8CA7",
"x. c #7F90AB",
"c. c #989492",
"v. c #AA9B92",
"b. c #8192AC",
"n. c #8D9DB5",
"m. c #8F9FB8",
"M. c #8798B1",
"N. c #93A2BA",
"B. c #99A8BF",
"V. c #AAA3A4",
"C. c #A6A2A2",
"Z. c #BDB0A1",
"A. c #B1AFB3",
"S. c #B7B5B9",
"D. c #DCB886",
"F. c #F6D68C",
"G. c #F8D585",
"H. c #FDDB96",
"J. c #FFE093",
"K. c #F2CDA9",
"L. c #EDD1A5",
"P. c #F3D2A3",
"I. c #FEE7A7",
"U. c #9CABC1",
"Y. c #A0AEC3",
"T. c #A3B0C5",
"R. c #A6B4C9",
"E. c #AAB7CB",
"W. c #AEBACE",
"Q. c #B5B9C6",
"!. c #B0BDD2",
"~. c #BDC3CF",
"^. c #B6C2D5",
"/. c #BAC4D6",
"(. c #BDC8D9",
"). c #C4CBD7",
"_. c #C0CBDC",
"`. c #E4CEC9",
"'. c #E5CFC6",
"]. c #E6D0C9",
"[. c #EACDD1",
"{. c #FFEAC9",
"}. c #FBE8C4",
"|. c #FFFBCA",
" X c #FFEED1",
".X c #FFFCD4",
"XX c #FFFADB",
"oX c #FFF2DA",
"OX c #FFF9E2",
"+X c #FFFCEC",
"@X c #FFF6EC",
"#X c #FFFCF4",
"$X c #F6FEFE",
"%X c #FCFDFE",
/* pixels */
"h.l.l.l.l.l.l.l.l.l.l.l.l.l.l.l.l.l.l.l.l.l.l.l.l.l.l.l.l.l.l.l.l.l.l.l.l.l.l.l.l.l.l.l.l.l.b.b.b.b.b.b.b.b.b.b.b.b.b.b.b.b.x.k.",
"h.m.N.N.N.N.N.N.N.N.N.N.N.N.N.N.N.N.N.N.N.N.N.N.N.N.N.N.N.N.N.N.N.N.N.N.N.N.N.N.N.N.N.N.N.N.N.N.N.N.N.N.N.N.N.N.N.N.N.N.N.N.m.l.",
"h.N.U.Y.Y.Y.Y.Y.Y.Y.Y.Y.Y.Y.Y.Y.Y.Y.Y.Y.Y.Y.Y.Y.Y.Y.Y.Y.Y.Y.B.B.U.Y.Y.Y.Y.Y.Y.Y.Y.Y.Y.Y.Y.Y.Y.Y.Y.Y.Y.Y.Y.Y.Y.Y.Y.Y.Y.T.R.T.N.l.",
"h.U._._._._._._._._._._._._._._._._._._._._._._._._._._._._.W.R.^._._._._._._._._._._._._._._._._._._._._._._._._._._._._.^.B.l.",
"h.U._._._._._._._._._._._._._._._._._._._._._._._._._._._._.W.E.^._._._._._._._._._._._._._._._._._._._._._._._._._._._._.^.B.l.",
"h.U._._._._._._._._._._._._._._._._._._._._._._._._._._._._.W.E.^._._._._._._._._._._._._._._._._._._._._._._._._._._._._.^.B.l.",
"h.U._._._._._._._._._._._._._._._._._._._._._._._.).).).).).Q.Q./.).).).)._._._._._._._._._._._._._._._._._._._._._._._._.^.B.l.",
"h.U._._._._._._._._._._._._._._._._._._._._._._._.9                       9 _._._._._._._._._._._._._._._._._._._._._._._./.B.l.",
"h.U._._._._._._._._._._._._._._._._._._._._._._._.V y r 2 2 2 2 2 > 1 1 1 f _._._._._._._._._._._._._._._._._._._._._._._.(.U.l.",
"h.U._._._._._._._._._._._._._._._._._._._._._._._.f , , > > > > , ; , , , V _._._._._._._._._._._._._._._._._._._._._._._._.U.l.",
"h.U._._._._._._._._._._._._._._._._._._._._._._.).t * * * o o o O > - - - i _._._._._._._._._._._._._._._._._._._._._._._._.U.l.",
"h.U._._._._._._._._._._._._._._._._._._.A.+ p p b 3.2.2.7.+X%X%X%Xe.E J I w.p d d + _._._._._._._._._._._._._._._._._._._._.U.l.",
"h.U._._._._._._._._._._._._._._._._._._.S.. 6 u z 2.2.2.>.+X%X%X%Xr.E H K T : y a 0 _._._._._._._._._._._._._._._._._._._._.U.l.",
"h.U._._._._._._._._._._._._._._._._._._.S.. > 2 z 4.2.2.>.+X%X%X%Xr.E G K T - - u $ _._._._._._._._._._._._._._._._._._._._.U.l.",
"h.U._._._._._._._._._._._._._._._._._._.Q.. 1 , z 2.2._ ..#X%X%X%Xe.E L J T - > 7 0 _._._._._._._._._._._._._._._._._._._._.U.l.",
"h.U._._._._._._._._._._._._._._._.S S A u.1.} ` s.|.XXXX|.q.+.+.+.*.,.,.,.,.U B B w.C S S D _._._._._._._._._._._._._._._._.U.l.",
"h.U._._._._._._._._._._._._._._.).h > < ( 4.2.2.G.#X%X$X+XO.G H H { <.,.,.,.G G G G = : 1 & _._._._._._._._._._._._._._._._.U.l.",
"h.U._._._._._._._._._._._._._._.).h > < ( 4.2.2.G.#X%X$X#XO.G G L %.<.,.,.=.G J J H = : 1 & _._._._._._._._._._._._._._._._.U.l.",
"h.U._._._._._._._._._._._._._._.).j > < ( 8.5.2.g.%X%X$X#XO.G L L %.<.,.,.=.G J J H = ; e & _._._._._._._._._._._._._._._._.U.l.",
"h.U._._._._._._._._._._._._._._.).j > < p.J.G.g.H.K.K.L.P.X.G L L &.<.,.<.=.G J J H = ; e & _._._._._._._._._._._._._._._._.U.l.",
"h.U._._._._._._._._._._._._._._._.j > 6 [.%X%X$X XE ! ! ! G J K K %.,.,.,.,.G J J H = ; e & _._._._._._._._._._._._._._._._.U.l.",
"h.U._._._._._._._._._._._._._._._.j > 1 ].%X%X%X{.R H J G G J G K %.<.<.,.,.G J J H = ; , & _._._._._._._._._._._._._._._._.U.l.",
"h.U._._._._._._._._._._._._._._._.j > 1 ].%X%X%X{.R L J J G J J K &.,.<.,.,.G G J H = ; , & _._._._._._._._._._._._._._._._.U.l.",
"h.U._._._._._._._._._._._._._._._.j > 1 K.XX.XXXI.T K J G O.9.9.q.y.,.,.,.,.G J J H = ; e % _._._._._._._._._._._._._._._._.U.l.",
"h.U._._._._._._._._._._._._._._.).j > < o.8. . ...G H G T XX#X%X%Xi.<.,.<.<.G J J H = ; r % _._._._._._._._._._._._._._._._.Y.l.",
"h.U._._._._._._._._._._._._._._._.j > < W 2._ 2.' G G G R +X%X%X$Xi.<.,.<.<.G J J H = ; r % _._._._._._._._._._._._._._._._.Y.l.",
"h.U._._._._._._._._._._._._._._._.j > < W 3.2.2.] J G G T +X%X%X$Xd.<.,.<.<.G J J H = ; r % _._._._._._._._._._._._._._._._.Y.l.",
"h.U._._._._._._._._._._._._._._._.j > < W 3.2.2.} U R T X.+X%X%X$Xd.<.,.<.<.G J J H = ; e % _._._._._._._._._._._._._._._._.Y.l.",
"h.U._._._._._._._._._._._._._._.).j > < W 3.2.2.f.oX@XOXXX#X%X%X%Xd.<.,.<.:.J J J G = ; e & _._._._._._._._._._._._._._._._.Y.l.",
"h.U._._._._._._._._._._._._._._.).j > < W 3.2.2.F.%X%X%X%X%X%X%X%Xd.<.,.<.<.J J J G = ; e & _._._._._._._._._._._._._._._._.Y.l.",
"z.N.U.U.U.U.U.U.U.U.U.U.U.U.U.U.Y.j > < Q 3.2.2.G.#X%X%X%X%X$X%X%Xd.,.,.<.<.H J J G = ; e & U.U.U.U.U.U.U.U.U.U.U.U.U.U.U.U.B.M.",
"h.B.^.^.^.^.^.^.^.^.^.^.^.^.^.^./.j > < o.8...' F.%X%X%X%X#X@X#X#Xi.,.,.<.,.H G G G = ; e & /.^.^.^.^.^.^.^.^.^.^.^.^.^.^.^.U.z.",
"h.U._._._._._._._._._._._._._._.).j > < D.I.I.I.}.%X%X%X#XH.G.H.J.t.<.,.<.,.J J J G = , e & _._._._._._._._._._._._._._._._.Y.l.",
"h.U._._._._._._._._._._._._._._.).j > 1 '.%X%X$X%X%X%X%X+Xa.6.6.6.:.<.,.<.,.J J J G = , e & _._._._._._._._._._._._._._._._.Y.l.",
"j.n._._._._._._._._._._._._._._._.j > 6 `.%X%X$X%X%X%X%X#Xa.2.2.2.;.<.<.<.:.J J J K = ; e & _._._._._._._._._._._._._._._._.Y.l.",
"j.n._._._._._._._._._._._._._._._.j , 5 `.%X%X$X$X%X%X%X#Xa.2.2.2.;.<.<.<.:.J J J K = ; e & _._._._._._._._._._._._._._._._.Y.l.",
"j.n._._._._._._._._._._._._._._._.j , 4 `.%X$X%XoXw.+.+.+.6.2.2.2.;.<.<.<.:.J J J G = ; e & _._._._._._._._._._._._._._._._.Y.l.",
"j.n._._._._._._._._._._._._._._._.j , 4 `.%X$X%X{.R L L K 3.2.2._ ;.<.<.<.:.J J J G = ; e & _._._._._._._._._._._._._._._._.T.l.",
"j.n._._._._._._._._._._._._._._.).7 , 4 `.%X$X%X{.R H K K 3.2.2._ ;.<.<.<.:.J J J G = ; e & _._._._._._._._._._._._._._._._.R.l.",
"j.n._._._._._._._._._._._._._._._.7 , 4 `.%X$X$X{.Y H K K 3.2.2._ ;.<.<.<.:.J J J G = ; e & _._._._._._._._._._._._._._._._.E.l.",
"j.n._._._._._._._._._._._._._._._.7 , 1 L.|..X.XI.P G G K 3.2.2._ ;.<.<.<.:.J J J H = ; , & _._._._._._._._._._._._._._._._.E.l.",
"j.n._._._._._._._._._._._._._._._.7 , < ) 2.2.2._ J G G J 3.2.2._ ;.<.<.<.<.G J J H = , r % _._._._._._._._._._._._._._._._.E.l.",
"j.n._._._._._._._._._._._._._._._.7 , < ) 3.2.2.] J G G J 3.2.2._ ;.<.<.<.<.G J J H = , r % _._._._._._._._._._._._._._._._.E.l.",
"j.n._._._._._._._._._._._._._._._.7 , < / 5.2.2. .J G G J 3._ 2.2.;.<.<.<.<.G J G H = , r % _._._._._._._._._._._._._._._._.E.l.",
"j.n._._._._._._._._._._._._._._._.7 , < / 3.2.2.| J G G J 5.' 5.5.:.<.<.,.=.G J J H = ; r % _._._._._._._._._._._._._._._._.E.l.",
"j.n._._._._._._._._._._._._._._._.7 , < / 3.2.2.| J J G G J J J J :.<.<.,.:.G J J H = ; r % _._._._._._._._._._._._._._._._.E.b.",
"j.n._._._._._._._._._._._._._._._.7 , < / 3._ 2.| J J G G J J J J =.=.,.,.=.G J J H = ; r % _._._._._._._._._._._._._._._._.E.b.",
"j.n._._._._._._._._._._._._._._.).u , < / 3._ _ | J J J K J G G G =.,.,.,.,.G J G H = ; r & _._._._._._._._._._._._._._._._.E.b.",
"j.n._._._._._._._._._._._._._._.).Z a y $.5._ _ | J K K K K K H L *.<.<.<.,.P J G L , t t g )._._._._._._._._._._._._._._._.E.b.",
"j.n._._._._._._._._._._._._._._._.)._._.Z.v c c m | ` ` | &.&.*.*.~ ~ ~ ~ Q x x x N )._.)._._._._._._._._._._._._._._._._._.E.b.",
"j.n._._._._._._._._._._._._._._._._._._.Q.X 2 u l 2.2.2._ <.<.<.,.^ H H H T , : a 0 _._._._._._._._._._._._._._._._._._._._.E.b.",
"j.n._._._._._._._._._._._._._._._._._._.S.. 3 8 l 2.2.2._ :.<.<.,.^ G G G U > 1 i # _._._._._._._._._._._._._._._._._._._._.E.b.",
"j.n._._._._._._._._._._._._._._._._._._.S.X j 8 x _ 2._ _ ..:.:.:.^ J G G F 6 8 u # _._._._._._._._._._._._._._._._._._._._.E.b.",
"j.n._._._._._._._._._._._._._._._._._._.~.c.V.V.v.#.[ [ [ @.$.$.@.Y n n n 0.V.C.C.c._._._._._._._._._._._._._._._._._._._._.E.b.",
"j.n._._._._._._._._._._._._._._._._._._._._._._._.w ; , , , , , , , , , , s _._._._._._._._._._._._._._._._._._._._._._._._.E.b.",
"j.n._._._._._._._._._._._._._._._._._._._._._._._.w ; > ; ; ; ; ; ; , , , s _._._._._._._._._._._._._._._._._._._._._._._._.E.b.",
"j.n._._._._._._._._._._._._._._._._._._._._._._._.M j j j j j j j j j j h M _._._._._._._._._._._._._._._._._._._._._._._._.E.b.",
"j.n._._._._._._._._._._._._._._._._._._._._._._._.# $ $ @ @ @ @ @ @ @ @ @ # _._._._._._._._._._._._._._._._._._._._._._._._.E.b.",
"j.n._._._._._._._._._._._._._._._._._._._._._._._._._._._._./.Y.!._._._._._._._._._._._._._._._._._._._._._._._._._._._._._.E.b.",
"j.n._._._._._._._._._._._._._._._._._._._._._._._._._._._._./.Y.!._._._._._._._._._._._._._._._._._._._._._._._._._._._._._.E.b.",
"j.n._._._._._._._._._._._._._._._._._._._._._._._._._._._._./.Y.!._._._._._._._._._._._._._._._._._._._._._._._._._._._._._.E.b.",
"j.n._._._._._._._._._._._._._._._._._._._._._._._._._._._._./.Y.!._._._._._._._._._._._._._._._._._._._._._._._._._._._._._.E.b.",
"k.M.E.E.E.E.E.E.E.E.E.E.E.E.E.E.E.E.E.E.E.E.E.E.E.E.E.E.E.E.R.B.Y.E.E.E.E.E.E.E.E.E.E.E.E.E.E.E.E.E.E.E.E.E.E.E.E.E.E.E.E.E.U.x.",
"h.j.l.l.l.l.l.l.l.l.l.l.l.l.l.l.l.l.l.l.l.l.l.l.l.j.j.j.j.j.l.M.j.j.j.j.j.j.j.j.j.j.j.j.j.j.j.j.j.j.j.j.j.j.j.j.j.j.j.j.j.j.j.h."
};
