/* XPM */
static char *b2b2279f8ab3471af05a29a4b5474d68J6Q7v2SYrmwimSGH[] = {
/* columns rows colors chars-per-pixel */
"64 64 221 2 ",
"   c #290600",
".  c #3B1800",
"X  c #3C1108",
"o  c #450D00",
"O  c #431400",
"+  c #431803",
"@  c #571C01",
"#  c #611C07",
"$  c #5B2301",
"%  c #592706",
"&  c #4A281B",
"*  c #572A1C",
"=  c #46260C",
"-  c #642B00",
";  c #682F00",
":  c #6A3700",
">  c #6E3A01",
",  c #6C3B0B",
"<  c #6F3609",
"1  c #733603",
"2  c #733B03",
"3  c #7A3C04",
"4  c #733B0C",
"5  c #7B3C0A",
"6  c #7F370F",
"7  c #642A1D",
"8  c #683817",
"9  c #743F11",
"0  c #7B3C13",
"q  c #5A2E23",
"w  c #56352A",
"e  c #4E322A",
"r  c #65362A",
"t  c #683428",
"y  c #794405",
"u  c #744416",
"i  c #76441C",
"p  c #7A451C",
"a  c #6F420F",
"s  c #794527",
"d  c #7B5126",
"f  c #774931",
"g  c #75685D",
"h  c #853D1D",
"j  c #8A3A1C",
"k  c #843A17",
"l  c #853E09",
"z  c #823E22",
"x  c #953E22",
"c  c #894E09",
"v  c #A06900",
"b  c #A46600",
"n  c #864529",
"m  c #9E6F26",
"M  c #B87B29",
"N  c #CC7E00",
"B  c #D37E00",
"V  c #CD7E18",
"C  c #E07D00",
"Z  c #CA7F27",
"A  c #9E7C4A",
"S  c #87796A",
"D  c #AA7F6F",
"F  c #BB8405",
"G  c #BB8513",
"H  c #B78B22",
"J  c #CA8B00",
"K  c #D58501",
"L  c #DB8503",
"P  c #D48901",
"I  c #DB8902",
"U  c #D4860B",
"Y  c #D59504",
"T  c #CB8217",
"R  c #D38917",
"E  c #E28501",
"W  c #E39D00",
"Q  c #E8AC0E",
"!  c #E9A906",
"~  c #F3AC0A",
"^  c #FDBE01",
"/  c #F9B50E",
"(  c #FDBD0A",
")  c #F8B606",
"_  c #E3AD19",
"`  c #E8AA16",
"'  c #FFB711",
"]  c #F5BF14",
"[  c #F4BD1D",
"{  c #FABC14",
"}  c #CB8127",
"|  c #D68421",
" . c #D9AE25",
".. c #E7AF24",
"X. c #F4BD22",
"o. c #F4BB2C",
"O. c #E9B63A",
"+. c #F2BC3D",
"@. c #F1BC33",
"#. c #E8B024",
"$. c #F4C200",
"%. c #FDC202",
"&. c #FBCC00",
"*. c #FEC40C",
"=. c #F4C806",
"-. c #FED301",
";. c #FEDC03",
":. c #FFDA09",
">. c #F9D90A",
",. c #EDC41A",
"<. c #FBC213",
"1. c #FBC41C",
"2. c #FFC91D",
"3. c #F3C018",
"4. c #FEDC13",
"5. c #FDE202",
"6. c #FEED03",
"7. c #FEE10D",
"8. c #FFEC0B",
"9. c #FCF201",
"0. c #FBF206",
"q. c #FDF115",
"w. c #F9EF1B",
"e. c #F2C42A",
"r. c #F9C523",
"t. c #EEC43D",
"y. c #E5C133",
"u. c #F3C333",
"i. c #F5C73B",
"p. c #F5E826",
"a. c #F6F124",
"s. c #98887B",
"d. c #A6867A",
"f. c #AC9567",
"g. c #A68A56",
"h. c #DD9E57",
"j. c #E8B84C",
"k. c #F5BE47",
"l. c #D5A269",
"z. c #D4AC6F",
"x. c #CB9B6B",
"c. c #F6CB47",
"v. c #F2CA50",
"b. c #F3E64A",
"n. c #F3E65C",
"m. c #E9C662",
"M. c #F4CD77",
"N. c #F2D376",
"B. c #EFCF77",
"V. c #F7F47F",
"C. c #647897",
"Z. c #6B7E9B",
"A. c #657998",
"S. c #7486A3",
"D. c #7A8CA7",
"F. c #7F90AB",
"G. c #9F979C",
"H. c #A89D9C",
"J. c #A1958A",
"K. c #ADA19B",
"L. c #B8A785",
"P. c #8192AC",
"I. c #8D9DB5",
"U. c #8B9BB4",
"Y. c #AD9EA2",
"T. c #93A2BA",
"R. c #99A8BF",
"E. c #ACA3A4",
"W. c #A9A4A8",
"Q. c #B3A9AB",
"!. c #B1A4A7",
"~. c #B0AFB5",
"^. c #C9B391",
"/. c #DCBEB4",
"(. c #F5D98B",
"). c #F4DC93",
"_. c #ECCA84",
"`. c #FBF185",
"'. c #FEE497",
"]. c #FAF397",
"[. c #F9EC88",
"{. c #D5C0BA",
"}. c #D7C1B7",
"|. c #FFDCAA",
" X c #F8D8B9",
".X c #FBF5A5",
"XX c #FFEAB8",
"oX c #FEF3B5",
"OX c #FFF3BB",
"+X c #FFEFA6",
"@X c #9BAAC1",
"#X c #A0AEC3",
"$X c #A6B4C9",
"%X c #AAB7CB",
"&X c #AEBBCF",
"*X c #A3B0C5",
"=X c #B0BDD2",
"-X c #B6C2D5",
";X c #B9C5D6",
":X c #BDC8D9",
">X c #C5C7D1",
",X c #C3CAD6",
"<X c #C0CBDC",
"1X c #DCD1CA",
"2X c #E9D9CF",
"3X c #FFE3C6",
"4X c #FFF3C3",
"5X c #FFF5CC",
"6X c #FFFECB",
"7X c #FFF8C3",
"8X c #FFFCD1",
"9X c #FFF5DA",
"0X c #FFE5D1",
"qX c #FFFCE3",
"wX c #FFFBEC",
"eX c #FFF1E4",
"rX c #FEFDF4",
"tX c #F6FDFE",
"yX c #FDFEFE",
"uX c #FFF7F4",
"iX c #F9EEE1",
/* pixels */
"C.S.S.S.S.S.S.S.S.S.S.S.S.S.S.S.S.S.S.S.S.S.S.S.S.S.S.S.S.S.S.S.S.S.S.S.S.S.S.S.S.S.S.S.S.S.P.P.P.P.P.P.P.P.P.P.P.P.P.P.P.P.F.A.",
"C.I.T.T.T.T.T.T.T.T.T.T.T.T.T.T.T.T.T.T.T.T.T.T.T.T.T.T.T.T.T.T.T.T.T.T.T.T.T.T.T.T.T.T.T.T.T.T.T.T.T.T.T.T.T.T.T.T.T.T.T.T.I.S.",
"C.T.@X#X#X#X#X#X#X#X#X#X#X#X#X#X#X#X#X#X#X#X#X#X#X#X#X#X#X#XR.R.@X#X#X#X#X#X#X#X#X#X#X#X#X#X#X#X#X#X#X#X#X#X#X#X#X#X#X*X$X*XT.S.",
"C.@X<X<X<X<X<X<X<X<X<X<X<X<X<X<X<X<X<X<X<X<X<X<X<X<X<X<X<X<X&X$X-X<X<X<X<X<X<X<X<X<X<X<X<X<X<X<X<X<X<X<X<X<X<X<X<X<X<X<X<X-XR.S.",
"C.@X<X<X<X<X<X<X<X<X<X<X<X<X<X<X<X<X<X<X<X<X<X<X<X<X<X<X<X<X&X%X-X<X<X<X<X<X<X<X<X<X<X<X<X<X<X<X<X<X<X<X<X<X<X<X<X<X<X<X<X-XR.S.",
"C.@X<X<X<X<X<X<X<X<X<X<X<X<X<X<X<X<X<X<X<X<X<X<X<X<X<X<X<X<X&X%X-X<X<X<X<X<X<X<X<X<X<X<X<X<X<X<X<X<X<X<X<X<X<X<X<X<X<X<X<X-XR.S.",
"C.@X<X<X<X<X<X<X<X<X<X<X<X<X<X<X<X<X<X<X<X<X<X<X<X<X<X<X<X<X&X%X-X<X<X<X<X<X<X<X<X<X<X<X<X<X<X<X<X<X<X<X<X<X<X<X<X<X<X<X<X-XR.S.",
"C.@X<X<X<X<X<X<X<X<X<X<X<X<X<X<X<X<X<X<X<XW.i i u i i i p p i u u u u u u u u u u f >X<X<X<X<X<X<X<X<X<X<X<X<X<X<X<X<X<X<X;XR.S.",
"C.@X<X<X<X<X<X<X<X<X<X<X<X<X<X<X<X<X<X:X<XE.0 > > < > > > > > > > > > > > > > > > s >X<X<X<X<X<X<X<X<X<X<X<X<X<X<X<X<X<X<X:X@XS.",
"C.@X<X<X<X<X<X<X<X<X<X<X<X<X<X<X<X<X<X:X<XE.0 y a 5 0 5 0 0 5 5 3 3 3 3 3 3 3 3 5 s ,X<X<X<X<X<X<X<X<X<X<X<X<X<X<X<X<X<X<X<X@XS.",
"C.@X<X<X<X<X<X<X<X<X<X<X<X<X<X<X<XH.K.E.H.^.! Q  .z.2X2X2X Xj.` Q Q Q Q Q Q Q Q Q _ f.K.!.E.~.<X<X<X<X<X<X<X<X<X<X<X<X<X<X<X@XS.",
"C.@X<X<X<X<X<X<X<X<X<X<X<X<X<X<X:X& % % $ O.%.*.,.).yXtXyXwXv.*.*.%.%.%.%.%.%.%.%.*.F O % % g <X<X<X<X<X<X<X<X<X<X<X<X<X<X<X@XS.",
"C.@X<X<X<X<X<X<X<X<X<X<X<X<X<X<X:Xq < , 2 #.^ ^ [ (.yXyXyXwXk.( %.%.%.%.%.%.^ ^ %.( F $ > 2 S <X<X<X<X<X<X<X<X<X<X<X<X<X<X<X@XS.",
"C.@X<X<X<X<X<X<X<X<X<X<X<X<X<X<X<Xq 1 2 2 #.%.^ [ ).yXyXyXwXk.^ ^ ^ ^ %.%.%.( ( %.%.F $ > 2 S :X<X<X<X<X<X<X<X<X<X<X<X<X<X<X@XS.",
"C.@X<X<X<X<X<X<X<X<X<X<X<X<X<X<X<X8 c y y O.r.u.t.(.9X9XeX5X+.( ) ( ( ( ( { u.i.e.e.H , d d s.:X<X<X<X<X<X<X<X<X<X<X<X<X<X<X@XS.",
"C.@X<X<X<X<X<X<X<X<X<X<X,Xn d p * c.^ %.1.OXyXyXrX|.U B L I K L L K K K U } uXyXyXyXyXyXtXtX:Xf p p 7 <X<X<X<X<X<X<X<X<X<X<X@XS.",
"C.@X<X<X<X<X<X<X<X<X<X<X,Xk 2 2 $ r.^ %.1.oXyXyXrX|.R L L L L L K K K K L } rXyXyXtXrXrXtXyXeX, 2 5 8 <X<X<X<X<X<X<X<X<X<X<X@XS.",
"C.@X<X<X<X<X<X<X<X<X<X<X<Xh 4 , $ 2.^ %.1.OXyXyXrX X| L L L L L L L K L L } rXyXyXyXyXyXyXyXeX8 , 0 r <X<X<X<X<X<X<X<X<X<X<X@XS.",
"C.@X<X<X<X<X<X<X<X<X<X<X<X- $ % X i.u.u.c.oXrXrXwX|.T N N N N N N B Z Z } M qXrXrXuXyXyXyXyXiX. . O * <X<X<X<X<X<X<X<X<X<X<X@XS.",
"C.@X<X<X<X<X<X<XE.w w q A *.2.2.c.5XwXrXwXx.V T T Y ( ( ( ( ( ( ^ o.5XwXwXwXy.,.X.@.'.qXyXyXyXrXrXrX<X& 7 7 7 >X<X<X<X<X<X<X@XS.",
"C.@X<X<X<X<X<X<XQ.9 4 2 v %.%.%.u.rXyXyXyXl.E L P W %.^ %.%.%.^ %.,.8XyXyXyXe.%.%.{ '.wXyXyXyXyXyXyXyX& 4 1 j ,X<X<X<X<X<X<X@XS.",
"C.@X<X<X<X<X<X<XQ.u 2 2 v %.%.%.u.wXyXyXyXx.L K P W %.%.%.%.%.%.%.,.6XyXyXyXe.%.%.<.'.wXyXyXyXyXyXyXyX& 2 > j ,X<X<X<X<X<X<X@XS.",
"C.@X<X<X<X<X<X<XQ.u 2 2 v %.%.*.e.qXyXrXrXl.I P P W %.%.%.%.] 3.] y.8XyXyXyXt.=.<.e.'.qXrXrXrXyXrXyXrX& 2 > h ,X<X<X<X<X<X<X@XS.",
"C.@X<X<X<X<X<X<XQ.9 2 2 v ^ ^ %.1.h.l.l.l.j.^ ' / ) %.^ ^ [ OX7X7X8XrXtXyXrX4XoXOXOX+X[.V.V.`.N.N.N.N.% 2 > z ,X<X<X<X<X<X<X@XS.",
"C.@X<X<X<X<X<X<XQ.9 2 2 v ^ ^ %.*.C E L L / %.%.%.%.%.%.^ o.yXyXyXyXyXyXyXyXyXtXtXtX.Xp.6.9.6.%.%.%.%.; 2 1 z ,X<X<X<X<X<X<X#XS.",
"C.@X<X<X<X<X<X<XQ.9 2 2 v ^ ^ %.*.K E L L ' %.%.%.%.%.%.^ o.yXyXyXyXyXyXyXyXrXtXtXtX].p.6.6.6.%.%.%.%.; 2 1 z ,X<X<X<X<X<X<X#XS.",
"C.@X<X<X<X<X<X<XQ.9 2 2 v ^ ^ %.*.K L L I ' ^ %.%.%.%.%.^ [ yXyXyXyXyXyXyXyXyXtXtXyX.Xp.6.0.8.%.%.%.%.; 2 1 z ,X<X<X<X<X<X<X#XS.",
"C.@X<X<X<X<X<X<XQ.9 2 2 v ^ ^ %.*.K L L I ' ^ %.*.i.M.B.M._.rXyXyXyXyXyXyXrX5X7X5X4X`.a.9.9.8.%.%.%.%.- 2 2 z ,X<X<X<X<X<X<X#XS.",
"C.@X<X<X<X<X<X<XQ.9 2 2 v ^ ^ ^ *.K L L I ' ^ %.3.(.rXyXyXyXyXyXyXyXyXyXyXrX@.*.<.( 4.6.9.9.8.%.%.%.%.- 2 2 z ,X<X<X<X<X<X<X#XS.",
"C.@X<X<X<X<X<X<XQ.9 2 2 v ^ ^ ^ *.K I L L / %.%.] (.yXyXyXyXyXyXyXyXyXyXyXrXr.%.%.%.;.6.9.9.8.%.%.%.%.- 2 > z ,X<X<X<X<X<X<X#XS.",
"D.T.@X@X@X@X@X@XG.9 2 2 v ^ ^ ^ *.K I L L ' %.%.{ (.yXyXyXyXyXyXyXyXyXyXyXyXe.%.%.%.:.6.9.9.8.%.%.%.%.- 2 > z #X@X@X@X@X@X@XR.U.",
"C.R.-X-X-X-X-X-XW.9 2 2 v ^ ^ ^ <.K I L L o.X.X.+.).yXyXyXyXyXyXyXyXrXrXrXwXr.%.%.%.:.6.9.9.8.%.%.%.%.- 2 > z -X-X-X-X-X-X-X@XD.",
"C.@X<X<X<X<X<X<XQ.9 2 2 v ^ ^ %.*.K I I U XXrXrXwXwXyXyXyXyXyXyXyXqXm.+.k.t.*.%.%.%.:.6.9.9.8.%.%.%.*.- 2 > z ,X<X<X<X<X<X<X#XS.",
"C.@X<X<X<X<X<X<XQ.9 2 2 v %.%.^ *.K I I R 3XyXyXyXyXyXyXyXyXyXyXyX9Xc.^ *.*.%.%.%.%.:.6.9.9.8.%.%.%.%.- 2 > z ,X<X<X<X<X<X<X#XS.",
"Z.I.<X<X<X<X<X<XQ.9 2 2 v %.%.^ *.P I I R 3XyXyXyXyXyXyXyXyXyXyXyXqXc.^ ^ %.%.%.%.%.:.6.9.9.8.%.%.%.*.- 2 > z ,X<X<X<X<X<X<X#XS.",
"Z.I.<X<X<X<X<X<XQ.9 2 2 v %.%.^ %.P I I R 0XyXyXyXyXyXyXyXyXyXyXyXwXv.( ^ %.%.%.%.%.:.6.9.9.8.%.%.%.%.- 2 > z ,X<X<X<X<X<X<X#XS.",
"Z.I.<X<X<X<X<X<XQ.9 2 2 v %.%.^ %.:.7.7.p.oXyXyXyXyXyXyXyXrXm.c.i.i.2.^ ^ %.%.%.%.%.:.6.9.9.8.%.%.%.%.- 2 > z ,X<X<X<X<X<X<X#XS.",
"Z.I.<X<X<X<X<X<XQ.9 2 2 v %.%.^ $.6.9.9.w..XyXyXyXyXyXyXyXrXO.^ ^ ^ ^ %.^ %.%.%.%.%.:.6.9.9.8.%.%.%.%.- 2 > h ,X<X<X<X<X<X<X*XS.",
"Z.I.<X<X<X<X<X<XQ.9 2 > v %.^ ^ $.9.9.9.w.oXyXyXyXyXyXyXyXrX+.%.%.%.%.^ %.%.%.%.%.%.:.6.9.9.8.%.%.%.%.- 2 > h ,X<X<X<X<X<X<X$XS.",
"Z.I.<X<X<X<X<X<XQ.9 2 > v %.^ ^ $.0.6.9.a.oXyXyXyXyXyXyXyXrX+.%.%.%.%.%.%.%.%.%.%.%.:.9.9.9.8.%.%.%.%.- 2 > h ,X<X<X<X<X<X<X%XS.",
"Z.I.<X<X<X<X<X<XQ.9 2 > m c.c.c.c.b.b.b.n..X6X6X6X6X4X4X5XoXo.%.%.%.%.%.%.%.&.&.-.-.;.5.5.5.:.%.%.%.%.- 2 > h ,X<X<X<X<X<X<X%XS.",
"Z.I.<X<X<X<X<X<XQ.9 2 , d.yXyXyXyXyXyXtXyX`.6.6.6.;.%.%.%.%.^ %.%.%.%.%.%.&.6.9.9.9.;.%.%.^ ^ ^ ^ ^ %.- 2 > h ,X<X<X<X<X<X<X%XS.",
"Z.I.<X<X<X<X<X<XQ.a , , D yXyXyXyXyXyXyXyX`.6.0.q.7.%.^ ( ( ^ %.%.%.%.%.%.%.6.9.9.9.;.$.%.^ ^ ^ ^ ^ %.- 2 > h ,X<X<X<X<X<X<X%XS.",
"Z.I.<X<X<X<X<X<XQ.f s s d.tXyXyXyXyXtXtXrX[.6.6.8.5.%.%.%.%.%.%.^ ^ ^ %.%.$.6.9.9.9.;.$.%.^ ^ ^ ^ ^ ( : s s s ,X<X<X<X<X<X<X%XS.",
"Z.I.<X<X<X<X<X<XE.* * * W.yXyXyXyXyXyXyXyX].6.6.q.7.%.*.*.*.*.*.( ) %.&.$.$.8.6.6.8.-.^ %.^ ^ 2.r.2.m.& e & w ,X<X<X<X<X<X<X%XS.",
"Z.I.<X<X<X<X<X<X<X<X<X<X,X@ o O   rXyXyXyXB.&.$.%.! K K K K K K K Y :.6.9.8.$.%.%.%.%.^ %.^ [ $ @ @ * <X<X<X<X<X<X<X<X<X<X<X%XP.",
"Z.I.<X<X<X<X<X<X<X<X<X<X,Xj 1 4 + yXyXyXyXM.%.^ %.~ K K K K K P I J 7.9.9.9.%.%.%.%.%.^ ^ ^ X.2 > 1 r <X<X<X<X<X<X<X<X<X<X<X%XP.",
"Z.I.<X<X<X<X<X<X<X<X<X<X,Xk : 4 O yXyXyXrXM.%.^ *.~ P K K P P P K J >.9.9.9.%.%.%.%.%.^ %.^ [ 2 4 4 f <X<X<X<X<X<X<X<X<X<X<X%XP.",
"Z.I.<X<X<X<X<X<X<X<X<X<X<Xr = =   rXyXrXwXN.%.%.*.! P J P P P P P P 4.8.8.8.%.%.%.%.*.] 1.<.j.+ X + w <X<X<X<X<X<X<X<X<X<X<X%XP.",
"Z.I.<X<X<X<X<X<X<X<X<X<X<X,X,X,X<X~.d.s.f.j.%.%.%.( / / / / / / ~ ) %.-.&.&.%.%.%.^ Y v v b g.,X<X<X<X<X<X<X<X<X<X<X<X<X<X<X%XP.",
"Z.I.<X<X<X<X<X<X<X<X<X<X<X<X<X<X<Xt j h l _ %.%.%.%.%.%.%.%.%.%.^ %.%.%.%.%.%.%.%.*.J $ 2 3 S <X<X<X<X<X<X<X<X<X<X<X<X<X<X<X%XP.",
"Z.I.<X<X<X<X<X<X<X<X<X<X<X<X<X<X<X* 6 5 3 ..^ ^ %.%.%.%.%.%.%.%.%.%.%.%.%.%.%.%.%.*.F $ : 1 S <X<X<X<X<X<X<X<X<X<X<X<X<X<X<X%XP.",
"Z.I.<X<X<X<X<X<X<X<X<X<X<X<X<X<X<X* # % $ O.*.%.%.%.%.%.%.%.%.%.%.%.%.%.%.%.%.%.%.<.G o % % g <X<X<X<X<X<X<X<X<X<X<X<X<X<X<X%XP.",
"Z.I.<X<X<X<X<X<X<X<X<X<X<X<X<X<X<XH.Y.!.E.^.` ` _ _ _ _ _ _ _ _ _ _ _ _ _ _ _ _ _  .L.J.E.E.W.<X<X<X<X<X<X<X<X<X<X<X<X<X<X<X%XP.",
"Z.I.<X<X<X<X<X<X<X<X<X<X<X<X<X<X<X<X<X<X<XH.3 3 2 2 2 2 2 2 2 2 2 2 2 2 2 2 2 2 2 u >X<X<X<X<X<X<X<X<X<X<X<X<X<X<X<X<X<X<X<X%XP.",
"Z.I.<X<X<X<X<X<X<X<X<X<X<X<X<X<X<X<X<X<X<XH.5 1 2 2 2 2 2 2 2 2 2 2 2 > > > > > < i >X<X<X<X<X<X<X<X<X<X<X<X<X<X<X<X<X<X<X<X%XP.",
"Z.I.<X<X<X<X<X<X<X<X<X<X<X<X<X<X<X<X<X<X<XH.x j j j h h h h h h h h h h h h h h h n >X<X<X<X<X<X<X<X<X<X<X<X<X<X<X<X<X<X<X<X%XP.",
"Z.I.<X<X<X<X<X<X<X<X<X<X<X<X<X<X<X<X<X<X<X<X/././.}.}.}.}.}.}.}.}.}.}.}.}.}.}.}.{.1X<X<X<X<X<X<X<X<X<X<X<X<X<X<X<X<X<X<X<X<X%XP.",
"Z.I.<X<X<X<X<X<X<X<X<X<X<X<X<X<X<X<X<X<X<X<X<X<X<X<X<X<X<X<X;X#X=X<X<X<X<X<X<X<X<X:X<X<X<X<X<X<X<X<X<X<X<X<X<X<X<X<X<X<X<X<X%XP.",
"Z.I.<X<X<X<X<X<X<X<X<X<X<X<X<X<X<X<X<X<X<X<X<X<X<X<X<X<X<X<X;X#X=X<X<X<X<X<X<X<X<X:X<X<X<X<X<X<X<X<X<X<X<X<X<X<X<X<X<X<X<X<X%XP.",
"Z.I.<X<X<X<X<X<X<X<X<X<X<X<X<X<X<X<X<X<X<X<X<X<X<X<X<X<X<X<X;X#X=X<X<X<X<X<X<X<X<X<X<X<X<X<X<X<X<X<X<X<X<X<X<X<X<X<X<X<X<X<X%XP.",
"Z.I.<X<X<X<X<X<X<X<X<X<X<X<X<X<X<X<X<X<X<X<X<X<X<X<X<X<X<X<X;X#X=X<X<X<X<X<X<X<X<X<X<X<X<X<X<X<X<X<X<X<X<X<X<X<X<X<X<X<X<X<X%XP.",
"A.P.%X%X%X%X%X%X%X%X%X%X%X%X%X%X%X%X%X%X%X%X%X%X%X%X%X%X%X%X$XR.#X%X%X%X%X%X%X%X%X%X%X%X%X%X%X%X%X%X%X%X%X%X%X%X%X%X%X%X%X%X@XF.",
"C.Z.S.S.S.S.S.S.S.S.S.S.S.S.S.S.S.S.S.S.S.S.S.S.S.Z.Z.Z.Z.Z.S.U.Z.Z.Z.Z.Z.Z.Z.Z.Z.Z.Z.Z.Z.Z.Z.Z.Z.Z.Z.Z.Z.Z.Z.Z.Z.Z.Z.Z.Z.Z.Z.C."
};
