/* XPM */
static char *fe559afa9dda4fee99e0d6f18d7e21fatrmpTvEz5Foj00Xu[] = {
/* columns rows colors chars-per-pixel */
"64 64 217 2 ",
"   c #4E1C02",
".  c #591F04",
"X  c #641C05",
"o  c #552402",
"O  c #5B2400",
"+  c #572A07",
"@  c #5E3B1E",
"#  c #5E3019",
"$  c #532C18",
"%  c #642301",
"&  c #642B02",
"*  c #6C2D03",
"=  c #68280A",
"-  c #722A04",
";  c #653301",
":  c #6B3402",
">  c #6E3B01",
",  c #64300B",
"<  c #6D3B08",
"1  c #6A370E",
"2  c #733304",
"3  c #733B03",
"4  c #793B04",
"5  c #76360B",
"6  c #743A0B",
"7  c #7A3809",
"8  c #65391C",
"9  c #6F3F1D",
"0  c #753C1A",
"q  c #632D14",
"w  c #5F3A22",
"e  c #603920",
"r  c #7A4103",
"t  c #724010",
"y  c #744A45",
"u  c #7B564C",
"i  c #7D5C54",
"p  c #7E675C",
"a  c #7F6560",
"s  c #854607",
"d  c #975709",
"f  c #9C5F15",
"g  c #9C6507",
"h  c #9B6014",
"j  c #A76909",
"k  c #B26A05",
"l  c #B87A1D",
"z  c #BD7908",
"x  c #BB7E23",
"c  c #AB7C3E",
"v  c #CA7E08",
"b  c #D37F00",
"n  c #D77F05",
"m  c #CB7D13",
"M  c #805C53",
"N  c #825E59",
"B  c #82594F",
"V  c #8B645A",
"C  c #826359",
"Z  c #926457",
"A  c #947759",
"S  c #A4774B",
"D  c #856D6A",
"F  c #8C776E",
"G  c #98786E",
"H  c #9A7D73",
"J  c #937D74",
"K  c #877474",
"L  c #BD840D",
"P  c #B98021",
"I  c #C98707",
"U  c #D48302",
"Y  c #D98503",
"T  c #D48A01",
"R  c #DA8903",
"E  c #D2840C",
"W  c #DB8509",
"Q  c #DB890A",
"!  c #DB9608",
"~  c #DD8D12",
"^  c #D68916",
"/  c #CE920E",
"(  c #E18C04",
")  c #E28B08",
"_  c #ED9E04",
"`  c #E59A07",
"'  c #E18E12",
"]  c #E49213",
"[  c #E99A14",
"{  c #E9971A",
"}  c #EB9B1A",
"|  c #E79813",
" . c #F09D1D",
".. c #DAAA0E",
"X. c #ECA909",
"o. c #FDBE02",
"O. c #F9B50B",
"+. c #FEBD0B",
"@. c #F6B707",
"#. c #EBA817",
"$. c #F1A21E",
"%. c #FEBA14",
"&. c #FEBA1C",
"*. c #F9B617",
"=. c #EEB20A",
"-. c #D79A23",
";. c #E69723",
":. c #F59F24",
">. c #F4A221",
",. c #F6A926",
"<. c #FCAC2D",
"1. c #F7A629",
"2. c #FDB32C",
"3. c #FCBD2B",
"4. c #FEB726",
"5. c #E9A734",
"6. c #FEAE33",
"7. c #FEAE39",
"8. c #FEB233",
"9. c #FFBA32",
"0. c #FEB33A",
"q. c #FFB939",
"w. c #E8BD38",
"e. c #F6C403",
"r. c #FDC101",
"t. c #FEC904",
"y. c #FDC209",
"u. c #FECA0A",
"i. c #F4C00E",
"p. c #F9D402",
"a. c #FCCA19",
"s. c #FDDA1E",
"d. c #FED814",
"f. c #FCEE05",
"g. c #FDE608",
"h. c #FBF301",
"j. c #FDF30D",
"k. c #F7F30B",
"l. c #FDE413",
"z. c #FEEC14",
"x. c #FAF011",
"c. c #F4F11F",
"v. c #F9C521",
"b. c #FDD525",
"n. c #F9D33D",
"m. c #F6CF3A",
"M. c #FAE82C",
"N. c #F6F124",
"B. c #F9EE31",
"V. c #BF9057",
"C. c #988479",
"Z. c #A48B7C",
"A. c #B09173",
"S. c #E4B467",
"D. c #D1B369",
"F. c #FAEB40",
"G. c #FCE96F",
"H. c #647897",
"J. c #6B7E9B",
"K. c #657998",
"L. c #7486A3",
"P. c #7A8CA7",
"I. c #7F90AB",
"U. c #9D8B85",
"Y. c #968A88",
"T. c #9D9595",
"R. c #A79998",
"E. c #BAA995",
"W. c #8192AC",
"Q. c #8D9DB5",
"!. c #8B9BB4",
"~. c #A69DA2",
"^. c #93A2BA",
"/. c #99A8BF",
"(. c #B6ACA8",
"). c #B4B0B2",
"_. c #B8B6BA",
"`. c #B3AEB0",
"'. c #C1AA99",
"]. c #C6B0A2",
"[. c #FAF583",
"{. c #FCF698",
"}. c #F9E58F",
"|. c #D0CBBD",
" X c #FCF8A8",
".X c #FCFCB5",
"XX c #E8D8AF",
"oX c #9BAAC1",
"OX c #A0AEC3",
"+X c #A6B4C9",
"@X c #AAB7CB",
"#X c #AEBBCF",
"$X c #A3B0C5",
"%X c #BABBC3",
"&X c #B0BDD2",
"*X c #BFC3CB",
"=X c #B6C2D5",
"-X c #B9C5D7",
";X c #BDC8D9",
":X c #C1C3CD",
">X c #C1C6D2",
",X c #C3C9D5",
"<X c #C0CBDC",
"1X c #D4CBC6",
"2X c #EADCD9",
"3X c #E8DFD8",
"4X c #FCF6C4",
"5X c #FDFACA",
"6X c #F5E9DA",
"7X c #FEF9D4",
"8X c #F1E4CC",
"9X c #E9DEE3",
"0X c #E6E6E2",
"qX c #ECE6E1",
"wX c #FEFEF4",
"eX c #FEFEFF",
"rX c #F0E8E4",
/* pixels */
"H.L.L.L.L.L.L.L.L.L.L.L.L.L.L.L.L.L.L.L.L.L.L.L.L.L.L.L.L.L.L.L.L.L.L.L.L.L.L.L.L.L.L.L.L.L.W.W.W.W.W.W.W.W.W.W.W.W.W.W.W.W.I.K.",
"H.Q.^.^.^.^.^.^.^.^.^.^.^.^.^.^.^.^.^.^.^.^.^.^.^.^.^.^.^.^.^.^.^.^.^.^.^.^.^.^.^.^.^.^.^.^.^.^.^.^.^.^.^.^.^.^.^.^.^.^.^.^.Q.L.",
"H.^.oXOXOXOXOXOXOXOXOXOXOXOXOXOXOXOXOXOXOXOXOXOXOXOXOXOXOXOX/./.oXOXOXOXOXOXOXOXOXOXOXOXOXOXOXOXOXOXOXOXOXOXOXOXOXOXOX$X+X$X^.L.",
"H.oX<X<X<X<X<X<X<X<X<X<X<X<X<X<X<X<X<X<X<X<X<X<X<X<X<X<X<X<X#X+X=X<X<X<X<X<X<X<X<X<X<X<X<X<X<X<X<X<X<X<X<X<X<X<X<X<X<X<X<X=X/.L.",
"H.oX<X<X<X<X<X<X<X<X<X<X<X<X<X<X<X<X<X<X<X<X<X<X<X<X<X<X<X<X#X@X=X<X<X<X<X<X<X<X<X<X<X<X<X<X<X<X<X<X<X<X<X<X<X<X<X<X<X<X<X=X/.L.",
"H.oX<X<X<X<X<X<X<X<X<X<X<X<X<X<X<X<X<X<X<X<X<X<X<X<X<X<X<X<X#X@X=X<X<X<X<X<X<X<X<X<X<X<X<X<X<X<X<X<X<X<X<X<X<X<X<X<X<X<X<X=X/.L.",
"H.oX<X<X<X<X<X<X<X<X<X<X<X<X<X<X<X<X<X<X<X<X<X<X<X<X<X<X<X<X#X@X=X<X<X<X<X<X<X<X<X<X<X<X<X<X<X<X<X<X<X<X<X<X<X<X<X<X<X<X<X=X/.L.",
"H.oX<X<X<X<X<X<X<X<X<X<X<X<X<X<X<X<X<X<X<X,X$ @ @ @ @ 8 @ @ @ @ @ @ @ w w w e 8 @ $ T.<X<X<X<X<X<X<X<X<X<X<X<X<X<X<X<X<X<X-X/.L.",
"H.oX<X<X<X<X<X<X<X<X<X<X<X<X<X<X<X<X<X<X<X>Xo r 3 3 3 3 3 3 3 3 3 3 4 4 6 4 6 6 6 2 U.<X<X<X<X<X<X<X<X<X<X<X<X<X<X<X<X<X<X;XoXL.",
"H.oX<X<X<X<X<X<X<X<X<X<X<X<X<X<X<X<X<X<X<X,Xo 4 2 4 3 3 3 3 < > > > > > > > > > < * U.<X<X<X<X<X<X<X<X<X<X<X<X<X<X<X<X<X<X<XoXL.",
"H.oX<X<X<X<X<X<X<X<X<X<X<X<X<X<X<X<X<X<X<X>X# t 0 0 0 0 0 9 6 4 4 4 4 4 4 4 3 3 3 2 C.<X<X<X<X<X<X<X<X<X<X<X<X<X<X<X<X<X<X<XoXL.",
"H.oX<X<X<X<X<X<X<X<X<X<X<X<X<X<X<X).F C.F _.rXqXqXqX0X0X0XqXw.X.=.=.#.5.5.5.-.I I E V.G C.H U.<X<X<X<X<X<X<X<X<X<X<X<X<X<X<XoXL.",
"H.oX<X<X<X<X<X<X<X<X<X<X<X<X<X<X<XR.O : . C.eXeXeXeXeXeXeXeXn.r.y.r.&.q.8.8.$.U Y ( m : : * u <X<X<X<X<X<X<X<X<X<X<X<X<X<X<XoXL.",
"H.oX<X<X<X<X<X<X<X<X<X<X<X<X<X<X<XR.* 4 = C.eXeXeXeXeXeXeXeXm.o.r.o.&.0.6.8.} U Y R m 4 < 6 C <X<X<X<X<X<X<X<X<X<X<X<X<X<X<XoXL.",
"H.oX<X<X<X<X<X<X<X<X<X<X<X<X<X<X<XR.O * X H eXeXeXeXeXeXeXeXn.r.t.r.&.q.8.8.} U U U z 3 : < i <X<X<X<X<X<X<X<X<X<X<X<X<X<X<XoXL.",
"H.oX<X<X<X<X<X<X<X<X<X<X<X%X(.`.).*X].].'.1XeXeXeX6XS.S.S.S.#._ _ _ [ } [ [ } } } $.;.k k k c (.).).(.<X<X<X<X<X<X<X<X<X<X<XoXL.",
"H.oX<X<X<X<X<X<X<X<X<X<X<XJ % * o |.eXeXeXeXeXeXeX8Xn b U b n Y Y U b U U b [ 8.8.8.<.R R ( Q 4 & ; & ,X<X<X<X<X<X<X<X<X<X<XoXL.",
"H.oX<X<X<X<X<X<X<X<X<X<X<XU.2 0 q 1XeXeXeXeXeXeXeX8X^ Y Y Y R R R R U U U U { 8.6.8.1.U Y R E s < < : ,X<X<X<X<X<X<X<X<X<X<XoXL.",
"H.oX<X<X<X<X<X<X<X<X<X<X<XC.. =   |.eXeXeXeXeXeXeX8XE U U U U U Y U U U U b { 8.8.8.1.U Y Y E 4 ; ; & ,X<X<X<X<X<X<X<X<X<X<XoXL.",
"H.oX<X<X<X<X<X<X<X>X>X>X*X%XZ.Z.Z.3XeXeXeX7X X X.X}.;.{ { { { { { { ` _ _ ` #.>.>.>.>.{ { } ;.j d g d _.>X:X:X<X<X<X<X<X<X<XoXL.",
"H.oX<X<X<X<X<X<X<Xy = % $ 6XeXeXeXeXeXeXeX{.N.k.k.l.2.8.8.8.8.8.0.8.%.o.o.+.X.b b b Q <.8.8.<.) R ) ] s . = X G <X<X<X<X<X<XoXL.",
"H.oX<X<X<X<X<X<X<XM 7 4 8 3XeXeXeXeXeXeXeX Xc.h.h.d.2.6.8.8.7.7.6.2.%.o.o.r.X.U U U ~ 6.8.8.<.Q U Y R d < 6 1 H <X<X<X<X<X<XoXL.",
"H.oX<X<X<X<X<X<X<XM 3 3 8 3XeXeXeXwXeXeXeX XN.h.h.l.2.8.8.8.0.0.7.8.&.r.r.r.X.b U U ~ 8.8.8.<.Q U U R d : 3 , H <X<X<X<X<X<XoXL.",
"H.oX<X<X<X<X<X<X<Xi 4 3 8 2XeXeXeX5X4X4X7X[.M.l.l.b.9.8.8.2.4.4.2.2.%.r.r.r.=.! ! ` | >.,.,.,.] ' ] | d : 3 , H <X<X<X<X<X<XoXL.",
"H.oX<X<X<X<X<X<X<XN 5 3 8 2XeXeXwX{.F.B.B.b.*.2.2.8.8.8.8.2.%.+.+.y.y.r.r.r.r.y.y.t.O.U U U U 1.8.6.8.f ; 3 , H <X<X<X<X<X<XOXL.",
"H.oX<X<X<X<X<X<X<XM 5 5 8 2XeXeXwX[.j.h.h.d.<.7.7.7.6.8.8.2.+.r.r.r.r.r.r.r.o.r.r.r.@.T T Y Q 1.<.6.8.f ; 6 , H <X<X<X<X<X<XOXL.",
"H.oX<X<X<X<X<X<X<XM 5 3 8 2XeXeXwX[.x.h.h.s.2.6.6.6.8.0.0.8.+.r.r.r.r.r.r.r.r.r.r.r.@.T T Y Q <.6.6.8.f ; 6 , H <X<X<X<X<X<XOXL.",
"H.oX<X<X<X<X<X<X<XM 5 3 8 2XeXeXwX[.x.h.h.s.2.8.6.8.2.8.0.2.+.r.r.r.r.r.r.r.r.r.r.r.O.T T Y Q <.6.6.8.f ; 3 , H <X<X<X<X<X<XOXL.",
"H.oX<X<X<X<X<X<X<XM 5 3 8 2XeXeXwX[.x.h.h.s.8.8.6.2.%.%.%.%.y.r.r.r.r.r.r.r.r.r.r.r.O.T T Y Q <.6.6.8.f ; 3 , H <X<X<X<X<X<XOXL.",
"H.oX<X<X<X<X<X<X<XM 5 3 8 2XeXeXwX[.x.h.h.s.8.0.7.2.o.r.r.o.r.r.r.r.r.r.r.r.r.r.r.r.O.T T Y Q <.6.6.8.f ; 3 , H <X<X<X<X<X<XOXL.",
"P.^.oXoXoXoXoXoXoXu 5 3 8 2XeXeXwX[.x.h.h.s.8.8.8.2.o.o.o.o.r.r.r.r.r.r.r.r.r.r.r.r.O.T T Y Q <.6.6.0.f ; 3 , F oXoXoXoXoXoX/.!.",
"H./.=X=X=X=X=X=X=Xi 5 3 8 2XeXeXwX[.x.h.h.s.2.8.6.2.+.+.+.o.r.r.r.r.r.r.r.r.r.r.r.r.O.T T Y Q <.6.6.0.f ; 3 , H =X=X=X=X=X=XoXP.",
"H.oX<X<X<X<X<X<X<XM 5 3 8 2XeXeXwX[.x.h.h.s.<.6.7.2.o.r.r.r.r.r.r.r.r.r.r.r.r.r.r.r.O.T T Y Q <.6.6.0.f ; 3 , H <X<X<X<X<X<XOXL.",
"H.oX<X<X<X<X<X<X<XM 5 3 8 2XeXeXwX[.x.f.h.s.2.6.7.2.+.+.r.r.o.r.r.r.r.r.r.r.r.r.r.r.O.T T Y Q 6.6.6.0.f ; 3 , H <X<X<X<X<X<XOXL.",
"J.Q.<X<X<X<X<X<X<XM 5 3 8 2XeXeXwX[.x.h.h.s.2.6.7.2.+.y.r.o.o.r.r.r.r.r.r.r.r.r.r.r.O.T R Y Q 6.6.6.0.f ; 3 , H <X<X<X<X<X<XOXL.",
"J.Q.<X<X<X<X<X<X<XM 5 3 8 2XeXeXwX[.x.h.h.s.<.6.6.4.o.r.r.o.o.r.r.r.r.r.r.r.r.r.r.r.O.T Y Y Q 6.6.6.0.f ; 3 , H <X<X<X<X<X<XOXL.",
"J.Q.<X<X<X<X<X<X<XM 5 3 8 2XeXeXwX[.x.h.h.s.<.6.6.2.&.&.&.&.+.r.r.r.r.r.r.r.r.r.r.r.O.U Y Y W <.6.6.0.f ; 3 , H <X<X<X<X<X<XOXL.",
"J.Q.<X<X<X<X<X<X<XM 5 3 8 2XeXeXwX[.x.h.h.s.<.6.6.6.0.7.8.8.+.r.r.r.r.r.r.r.r.r.r.r.O.U Y Y Q <.6.6.0.f ; 3 , H <X<X<X<X<X<X$XL.",
"J.Q.<X<X<X<X<X<X<XN 4 3 8 2XeXeXwX[.x.h.h.s.<.6.2.2.0.6.8.8.+.r.r.r.r.r.r.r.r.r.r.r.O.T Y Y Q <.6.6.0.f ; 3 , H <X<X<X<X<X<X+XL.",
"J.Q.<X<X<X<X<X<X<XN 5 3 8 9XeXeXeX{.x.h.h.s.<.6.8.8.6.6.6.2.+.r.r.r.r.r.r.r.r.r.r.t.O.T U U U 6.8.8.q.h ; 3 , H <X<X<X<X<X<X@XL.",
"J.Q.<X<X<X<X<X<X<XM 5 3 1 XX4X4X4XG.l.g.g.d.v.3.3.3.6.6.6.2.%.+.%.+.o.o.r.r.o.@.@.@.=.! ! ~ ] 1.6.6.8.f ; 3 , H <X<X<X<X<X<X@XL.",
"J.Q.<X<X<X<X<X<X<XM 3 3 r ..e.e.y.t.r.o.o.p.f.h.h.d.2.6.8.0.2.8.0.8.%.r.r.r.X.U Y U Q <.8.8.<.' W W Q d : 3 , H <X<X<X<X<X<X@XL.",
"J.Q.<X<X<X<X<X<X<XB 3 3 3 X.r.r.y.y.r.r.o.p.h.h.h.l.2.6.8.8.8.8.0.0.*.r.r.y.X.Y Q Y ' 6.<.<.<.Q U Y Q d : 3 , H <X<X<X<X<X<X@XL.",
"J.Q.<X<X<X<X<X<X<Xu 2 > : #.t.t.y.e.r.r.r.p.h.h.h.l.2.6.6.7.0.8.0.8.*.o.r.y.X.Y Q Y ~ 6.8.8.6.] R U Q d 1 6 , H <X<X<X<X<X<X@XL.",
"J.Q.<X<X<X<X<X<X<XK p p p D.i.*.=.e.r.r.r.p.f.h.f.l.3.8.2.3.2.8.6.8.*.@.+.+.#.) Q Q ] <.6.<.6.^ E E ^ A D D a `.<X<X<X<X<X<X@XL.",
"J.Q.<X<X<X<X<X<X<X<X<X<X;XZ.4 s 3 ..t.r.e.e.t.e.e.p.l.l.l.l.` Q Q Q R T T T [ 7.6.6.1.' ' Q ~ s r r 4 ,X<X<X<X<X<X<X<X<X<X<X@XW.",
"J.Q.<X<X<X<X<X<X<X<X<X<X<XY.= 2 : / t.o.r.r.o.o.+.t.h.h.h.h.` n U U U U U U { 0.6.8.1.W Y Y E s : : & <X<X<X<X<X<X<X<X<X<X<X@XW.",
"J.Q.<X<X<X<X<X<X<X<X<X<X<XY.: 3 : ! t.o.r.r.r.r.o.t.f.h.h.h.! Y Y Y U U Y U { 6.6.6.1.Y Y Y E s < 3 : ,X<X<X<X<X<X<X<X<X<X<X@XW.",
"J.Q.<X<X<X<X<X<X<X<X<X<X<XY.o + o -.a.t.t.r.r.r.o.u.j.j.j.j.! b Y Y U U Y U { 8.8.8.<.Q Q ( ^ < + o 8 ,X<X<X<X<X<X<X<X<X<X<X@XW.",
"J.Q.<X<X<X<X<X<X<X<X<X<X<X<X>X>X>XE.g j g I t.r.o.y.a.a.v.v.,.:.>.>.>.>.>.>.} ] ] } ~ d d d S :X>X>X>X<X<X<X<X<X<X<X<X<X<X<X@XW.",
"J.Q.<X<X<X<X<X<X<X<X<X<X<X<X<X<X<X~.o ; o g u.r.o.+.8.7.7.6.6.6.8.8.8.6.6.8. .b b Y v : ; : u <X<X<X<X<X<X<X<X<X<X<X<X<X<X<X@XW.",
"J.Q.<X<X<X<X<X<X<X<X<X<X<X<X<X<X<X~., r ; j u.r.o.+.8.8.2.8.6.6.6.<.<.<.<.6. .Y Y ( v 4 3 7 N <X<X<X<X<X<X<X<X<X<X<X<X<X<X<X@XW.",
"J.Q.<X<X<X<X<X<X<X<X<X<X<X<X<X<X<XR.O & O g d.t.t.y.9.9.9.9.8.8.8.8.8.8.8.q.>.Y ) ) m * & = y <X<X<X<X<X<X<X<X<X<X<X<X<X<X<X@XW.",
"J.Q.<X<X<X<X<X<X<X<X<X<X<X<X<X<X<X,X_.%X%XE.P I L L l x x x x x x x x x x x l j j j A._.%X%X%X<X<X<X<X<X<X<X<X<X<X<X<X<X<X<X@XW.",
"J.Q.<X<X<X<X<X<X<X<X<X<X<X<X<X<X<X<X<X<X<X,X  : ; ; * * ; ; ; ; ; ; ; ; ; ; ; ; : % C.<X<X<X<X<X<X<X<X<X<X<X<X<X<X<X<X<X<X<X@XW.",
"J.Q.<X<X<X<X<X<X<X<X<X<X<X<X<X<X<X<X<X<X<X,X+ 6 3 3 3 3 3 3 > > > > > > > > > > > * U.<X<X<X<X<X<X<X<X<X<X<X<X<X<X<X<X<X<X<X@XW.",
"J.Q.<X<X<X<X<X<X<X<X<X<X<X<X<X<X<X<X<X<X<X>X  5 - - - - * * * * * * * * * * * * : % Y.<X<X<X<X<X<X<X<X<X<X<X<X<X<X<X<X<X<X<X@XW.",
"J.Q.<X<X<X<X<X<X<X<X<X<X<X<X<X<X<X<X<X;X<X<XM Z Z Z Z Z V V V V V V V V V V V V V C _.<X<X<X<X<X<X<X<X<X<X<X<X<X<X<X<X<X<X<X@XW.",
"J.Q.<X<X<X<X<X<X<X<X<X<X<X<X<X<X<X<X<X<X<X<X<X<X<X<X<X<X<X<X-XOX&X<X<X<X<X<X<X<X<X<X<X<X<X<X<X<X<X<X<X<X<X<X<X<X<X<X<X<X<X<X@XW.",
"J.Q.<X<X<X<X<X<X<X<X<X<X<X<X<X<X<X<X<X<X<X<X<X<X<X<X<X<X<X<X-XOX&X;X<X<X<X<X<X<X<X<X<X<X<X<X<X<X<X<X<X<X<X<X<X<X<X<X<X<X<X<X@XW.",
"J.Q.<X<X<X<X<X<X<X<X<X<X<X<X<X<X<X<X<X<X<X<X<X<X<X<X<X<X<X<X-XOX&X<X<X<X<X<X<X<X<X<X<X<X<X<X<X<X<X<X<X<X<X<X<X<X<X<X<X<X<X<X@XW.",
"J.Q.<X<X<X<X<X<X<X<X<X<X<X<X<X<X<X<X<X<X<X<X<X<X<X<X<X<X<X<X-XOX&X<X<X<X<X<X<X<X<X<X<X<X<X<X<X<X<X<X<X<X<X<X<X<X<X<X<X<X<X<X@XW.",
"K.W.@X@X@X@X@X@X@X@X@X@X@X@X@X@X@X@X@X@X@X@X@X@X@X@X@X@X@X@X+X/.OX@X@X@X@X@X@X@X@X@X@X@X@X@X@X@X@X@X@X@X@X@X@X@X@X@X@X@X@X@XoXI.",
"H.J.L.L.L.L.L.L.L.L.L.L.L.L.L.L.L.L.L.L.L.L.L.L.L.J.J.J.J.J.L.!.J.J.J.J.J.J.J.J.J.J.J.J.J.J.J.J.J.J.J.J.J.J.J.J.J.J.J.J.J.J.J.H."
};
