/* XPM */
static char *e97df6011f744cc9cffb24cfa35a0dc9Ic8TJGODAOgAyUPC[] = {
/* columns rows colors chars-per-pixel */
"64 64 207 2 ",
"   c #450F00",
".  c #421100",
"X  c #561E00",
"o  c #581E00",
"O  c #441C1C",
"+  c #5D2400",
"@  c #5B2A00",
"#  c #562500",
"$  c #4C2D1C",
"%  c #49251C",
"&  c #5C291D",
"*  c #5B2518",
"=  c #5F351C",
"-  c #642600",
";  c #642800",
":  c #6F3700",
">  c #6E3A02",
",  c #6B3B0B",
"<  c #6A3704",
"1  c #753703",
"2  c #733A02",
"3  c #7A3D02",
"4  c #743D0A",
"5  c #7F3B0B",
"6  c #70370C",
"7  c #642B18",
"8  c #693B19",
"9  c #743D12",
"0  c #753E18",
"q  c #583627",
"w  c #543B37",
"e  c #683C27",
"r  c #653C36",
"t  c #6F400D",
"y  c #734103",
"u  c #7B4400",
"i  c #7C4708",
"p  c #6A401F",
"a  c #73411C",
"s  c #774419",
"d  c #6E4528",
"f  c #734324",
"g  c #774328",
"h  c #63443E",
"j  c #7B502E",
"k  c #7B5B46",
"l  c #863A1B",
"z  c #813A0F",
"x  c #863E20",
"c  c #9C6900",
"v  c #986700",
"b  c #9E741F",
"n  c #A06900",
"m  c #A77200",
"M  c #A87100",
"N  c #804C2C",
"B  c #86533A",
"V  c #9D7E3A",
"C  c #C47C1A",
"Z  c #C77E27",
"A  c #C67F32",
"S  c #8B6F60",
"D  c #857976",
"F  c #BE8700",
"G  c #BE8707",
"H  c #BF911C",
"J  c #C08A04",
"K  c #D58503",
"L  c #DA8601",
"P  c #D58900",
"I  c #DB8900",
"U  c #D3870D",
"Y  c #DD9500",
"T  c #D99705",
"R  c #D68414",
"E  c #D58419",
"W  c #CB8411",
"Q  c #E19A00",
"!  c #E09701",
"~  c #E18301",
"^  c #DDB012",
"/  c #EAA403",
"(  c #EEAC01",
")  c #E1AB0A",
"_  c #E7A104",
"`  c #FDAF0B",
"'  c #EAB803",
"]  c #F8B605",
"[  c #F4BA01",
"{  c #FDBE01",
"}  c #F6B30B",
"|  c #F9B50A",
" . c #FDBE0A",
".. c #F5B707",
"X. c #E4AC19",
"o. c #E4AD17",
"O. c #ECB419",
"+. c #F5BC1A",
"@. c #CD8625",
"#. c #DAAF37",
"$. c #F4BC27",
"%. c #F6C400",
"&. c #FDC101",
"*. c #F5CB00",
"=. c #FEC30B",
"-. c #FCCF00",
";. c #F9D600",
":. c #F7D800",
">. c #F9D900",
",. c #FAC212",
"<. c #FFC815",
"1. c #FCC519",
"2. c #FEC91B",
"3. c #F3C218",
"4. c #FEED03",
"5. c #FEE60B",
"6. c #FEED0B",
"7. c #FCE607",
"8. c #FCF202",
"9. c #FEF20B",
"0. c #FFF806",
"q. c #FFF510",
"w. c #EFC02B",
"e. c #F6C324",
"r. c #FAC837",
"t. c #F5E82D",
"y. c #EFEB32",
"u. c #F4EC33",
"i. c #FFEB3A",
"p. c #FBF23C",
"a. c #F8F12F",
"s. c #9C8879",
"d. c #D2AE55",
"f. c #CDB37B",
"g. c #E5B56C",
"h. c #F8CE4B",
"j. c #F5D27A",
"k. c #EED067",
"l. c #647897",
"z. c #6B7E9B",
"x. c #657998",
"c. c #7486A3",
"v. c #7A8CA7",
"b. c #7F90AB",
"n. c #948C8B",
"m. c #9D9493",
"M. c #96918D",
"N. c #A28E86",
"B. c #A08780",
"V. c #A29A97",
"C. c #A49A98",
"Z. c #AF9C8A",
"A. c #AAA19D",
"S. c #8192AC",
"D. c #8D9DB5",
"F. c #8F9FB8",
"G. c #8798B1",
"H. c #93A2BA",
"J. c #99A8BF",
"K. c #ACA3A5",
"L. c #ADA5A9",
"P. c #B1A4A6",
"I. c #AFA7B0",
"U. c #ECBA84",
"Y. c #C4BFBF",
"T. c #C5B4A5",
"R. c #DEC780",
"E. c #FFDE97",
"W. c #FFE18E",
"Q. c #FFE590",
"!. c #FADBA6",
"~. c #FEE3A5",
"^. c #F8E6AC",
"/. c #F6E0B8",
"(. c #9BAAC0",
"). c #9CABC1",
"_. c #A0AEC3",
"`. c #A0AEC4",
"'. c #A3B0C5",
"]. c #A6B4C9",
"[. c #AAB7CB",
"{. c #AEBBCF",
"}. c #B0BDD2",
"|. c #B6C3D5",
" X c #B6C2D5",
".X c #B9C5D7",
"XX c #BDC8D9",
"oX c #C3C6D2",
"OX c #C5CAD6",
"+X c #C0CBDC",
"@X c #C0CBDC",
"#X c #C3C3CA",
"$X c #FFEBC5",
"%X c #FFEBC8",
"&X c #FEFBC5",
"*X c #FFF4CB",
"=X c #FFFECE",
"-X c #FFFDD3",
";X c #FFFBDB",
":X c #FCEFD3",
">X c #FFFFE4",
",X c #FFFAEB",
"<X c #FFF6ED",
"1X c #FEFCF4",
"2X c #F7FEFF",
"3X c #FDFEFE",
"4X c #FBF8F6",
/* pixels */
"l.c.c.c.c.c.c.c.c.c.c.c.c.c.c.c.c.c.c.c.c.c.c.c.c.c.c.c.c.c.c.c.c.c.c.c.c.c.c.c.c.c.c.c.c.c.S.S.S.S.S.S.S.S.S.S.S.S.S.S.S.S.b.x.",
"l.F.H.H.H.H.H.H.H.H.H.H.H.H.H.H.H.H.H.H.H.H.H.H.H.H.H.H.H.H.H.H.H.H.H.H.H.H.H.H.H.H.H.H.H.H.H.H.H.H.H.H.H.H.H.H.H.H.H.H.H.H.F.c.",
"l.H.)._._._._._._._._._._._._._._._._._._._._._._._._._._._.J.J.)._._._._._._._._._._._._._._._._._._._._._._._._._._.'.].'.H.c.",
"l.(.+X+X+X+X+X+X+X+X+X+X+X+X+X+X+X+X+X+X+X+X+X+X+X+X+X+X+X+X{.]. X+X+X+X+X+X+X+X+X+X+X+X+X+X+X+X+X+X+X+X+X+X+X+X+X+X+X+X+X XJ.c.",
"l.(.+X+X+X+X+X+X+X+X+X+X+X+X+X+X+X+X+X+X+X+X+X+X+X+X+X+X+X+X{.[. X+X+X+X+X+X+X+X+X+X+X+X+X+X+X+X+X+X+X+X+X+X+X+X+X+X+X+X+X XJ.c.",
"l.(.+X+X+X+X+X+X+X+X+X+X+X+X+X+X+X+X+X+X+X+X+X+X+X+X+X+X+X+X{.[. X+X+X+X+X+X+X+X+X+X+X+X+X+X+X+X+X+X+X+X+X+X+X+X+X+X+X+X+X XJ.c.",
"l.(.+X+X+X+X+X+X+X+X+X+X+X+X+X+X+X+X+X+X+X+X+X+X+X+X+X+X+X+X{.[. X+X+X+X+X+X+X+X+X+X+X+X+X+X+X+X+X+X+X+X+X+X+X+X+X+X+X+X+X XJ.c.",
"l.(.+X+X+X+X+X+X+X+X+X+X+X+X+X+X+X+X+XD $ % $ $ $ $ $ $ $ $ $ $ $ $ $ $ $ $ $ $ $ $ $ $ $ +X+X+X+X+X+X+X+X+X+X+X+X+X+X+X+X.XJ.c.",
"l.(.+X+X+X+X+X+X+X+X+X+X+X+X+X+X+X+X+XN.9 4 4 4 4 4 4 4 4 4 4 4 4 4 4 4 4 4 4 4 4 4 4 4 j +X+X+X+X+X+X+X+X+X+X+X+X+X+X+X+XXX(.c.",
"l.(.+X+X+X+X+X+X+X+X+X+X+X+X+X+X+X+X+XN.4 2 2 2 2 2 2 2 2 2 2 2 2 2 2 2 2 2 2 4 2 2 2 4 f +X+X@X+X+X+X+X+X+X+X+X+X+X+X+X+X+X(.c.",
"l.(.+X+X+X+X+X+X+X+X+X+X+X+X+X+X+X+X+XN.4 4 4 4 4 4 4 4 4 4 4 4 4 4 4 4 4 4 4 4 2 2 4 6 g +X+X@X+X+X+X+X+X+X+X+X+X+X+X+X+X+X(.c.",
"l.(.+X+X+X+X+X+X+X+X+X+X+X+X+XC.A.K.L.d.) ) ) ) ) ) ) ) ) ) ) ) ) ) ) ) ) ) ) ) ) ) ) ) #.Z.P.P.K.OX+X+X+X+X+X+X+X+X+X+X+X+X(.c.",
"l.(.+X+X+X+X+X+X+X+X+X+X+X+X+Xq t , 8 O.{ &.&.&.&.&.&.&.&.&.&.&.&.&.&.&.&.&.&.&.&.&.&.&.&.u 9 6 a oX+X+X+X+X+X+X+X+X+X+X+X+X(.c.",
"l.(.+X+X+X+X+X+X+X+X+X+X+X+X+Xe y , , O.{ &.&.&.&.&.&.&.&.&.&.&.&.&.&.&.&.&.&.&.&.%.&.&.&.y 2 > s #X+X+X+X+X+X+X+X+X+X+X+X+X(.c.",
"l.(.+X+X+X+X+X+X+X+X+X+X+X+X+Xe 4 4 6 O.%.&.&.&.&.{ &.&.&.&.&.&.&.&.&.&.&.&.&.&.&.{ &.&.&.y > 2 f oX+X+X+X+X+X+X+X+X+X+X+X+X(.c.",
"l.(.+X+X+X+X+X+X+X+X+X+X+X+X@Xs 3 3 3 O.%.&.&.{ ..| | | | | | | | | | | | | | | ] { &.&.&.u u u i Y.+X+X+X+X+X+X+X+X+X+X+X+X(.c.",
"l.(.+X+X+X+X+X+X@X@XOXk d j 8 &.&.&.&.%.%.&.&./ L K P K K K K K K K K K K K K K P { &.&.&.=.&.&.&.H N f B % +X+X+X+X+X+X+X+X(.c.",
"l.(.+X+X+X+X+X+X+X@XOXa 2 4 ; =.=.&.&.&.&.&.&.( ~ L K L L L L L L L L L K L L L P { %.{ &.&.&.&.=.J 9 > 4 $ +X+X+X+X+X+X+X+X(.c.",
"l.(.+X+X+X+X+X+X+X+X@Xa 2 3 ; &.&.&.&.&.&.&.&.) E E E R K P P P P P K K K K K L P &.%.%.&.&.&.&.=.F 5 2 y q +X+X+X+X+X+X+X+X(.c.",
"l.(.+X+X+X+X+X+X+X+XOX# # +   &.&.&.&.&.=.=.=.X.Z A A Z K P P P P P P P P P K K P %.%.%.%.%.%.&.=.F + X X O +X+X+X+X+X+X+X+X(.c.",
"l.(.+X+X+X+Xn.& & & b 1.=.1.,.&.&.&.&.Y K P K g.1X1X1X-X+.=.=.=.=.=.=.=.=.=.=.=.&.9.8.9.9.%.&.&.&.=.2.<.<.k.* & & % +X+X+X+X(.c.",
"l.(.+X+X+X+XV.z 4 4 m %.&.&.&.&.&.&.%.! L L R U.2X3X2X;X+.%.{ { { &.&.&.&.%.&.&.%.9.8.0.0.%.{ &.&.&.&.&.&.<.- 1 1 f +X+X+X+X(.c.",
"l.(.+X+X+X+XV.5 2 4 m %.%.%.&.&.&.%.%.Y L L R U.2X2X2X;X+.%.%.%.&.&.&.&.&.&.&.&.%.9.8.8.8.%.&.&.&.{ { &.&.1.; 2 2 p +X+X+X+X).c.",
"l.(.+X+X+X+XV.5 2 4 m %.&.%.&.{ { %.%.T U E @.U.3X1X3X-X+.%.%.%.&.&.&.&.{ { &.&.%.9.9.9.9.%.&.%.%.&.{ &.&.1.; 2 2 p +X+X+X+X).c.",
"l.(.+X+X+X+XV.5 2 4 m %.%.%.&.Y Y Y Y E.$X%X%X!.j.j.j.k. .&.%.&.&.&.&.&.&.&.&.&.%.*.*.*.*.5.5.5.6.-.&.&.&.1.; 2 2 p +X+X+X+X_.c.",
"l.(.+X+X+X+XV.5 2 4 m %.%.&.=.P U L I :X2X2X2X^.&.{ { { { { { { &.&.&.&.&.&.{ { { &.&.&.&.4.8.8.8.:.&.&.&.1.; 2 2 p +X+X+X+X_.c.",
"l.(.+X+X+X+XV.5 2 4 m %.%.&. .K K K L *X3X3X3X^.&.&.&.&.&.&.&.&.&.&.&.&.&.&.&.&.&.&.&.&.&.4.8.8.8.:.&.&.&.1.; 2 2 p +X+X+X+X_.c.",
"l.(.+X+X+X+XV.5 2 t m %.%.&. .K K K I $X1X1X1X~.&.%.&.&.&.&.&.&.&.&.&.&.&.&.&.&.&.&.&.&.&.4.8.8.8.:.&.&.{ 1.; 2 2 p +X+X+X+X_.c.",
"l.(.+X+X+X+XV.5 2 4 m %.%.&. .K K K L ~.*X*X*XQ.&.%.&.&.&.&.&.&.&.&.&.&.&.&.&.&.&.&.&.&.&.4.8.8.8.:.&.&.{ 1.; 2 2 p +X+X+X+X_.c.",
"l.(.+X+X+X+XV.5 2 4 m %.&.&. .K K K L +.,.3.3.,.&.&.&.&.&.&.&.&.&.&.&.&.&.&.&.&.&.&.&.&.&.4.8.8.8.:.&.&.{ 1.; 2 2 p +X+X+X+X_.c.",
"v.H.).).).).n.5 2 4 m %.&.&. .K U K L ] { { { &.{ { { &.&.&.&.&.&.&.&.&.&.&.&.&.&.&.&.&.{ 4.8.8.8.>.&.&.{ 1.; 2 2 8 ).).).).J.G.",
"l.J. X X X Xm.5 2 4 m %.%.&. .K U K K | { { { &.{ { { &.&.&.&.&.&.&.&.&.&.&.&.&.&.&.&.&.&.4.8.8.8.>.&.&.{ 1.; 2 2 8  X X X X).v.",
"l.(.+X+X+X+XV.5 2 4 m %.%.&. .K K K K | { { { &.&.&.&.&.&.&.&.&.&.&.&.&.&.&.&.&.{ +.$.$.$.6.8.8.8.>.&.&.{ 1.; 2 2 p +X+X+X+X_.c.",
"l.(.+X+X+X+XV.5 2 4 m %.%.&. .K U K K | { { { &.&.&.&.&.&.&.&.&.&.&.&.&.&.&.&.&.w.,X3X3X3Xu.8.8.4.;.&.{ { 1.; 2 2 p +X+X+X+X_.c.",
"z.D.+X+X+X+XV.5 2 4 m %.&.&. .K K K L | { { { &.&.&.&.&.&.&.&.&.&.&.&.&.&.&.&.&.w.4X2X3X3Xu.8.8.4.;.&.{ { 1.; 2 2 p +X+X+X+X_.c.",
"z.D.+X+X+X+XV.5 2 4 m %.&.&. .K K K K | { { { &.{ &.&.&.&.&.&.&.&.&.&.&.&.&.{ { e.4X2X3X2Xy.8.8.8.;.&.{ { 1.; 2 2 p +X+X+X+X_.c.",
"z.D.+X+X+X+XV.5 2 4 m %.&.&. .K K K K | { { { &.{ &.&.&.&.&.&.&.&.&.&.&.&.&.&.&.3.4X2X3X2Xy.8.8.8.;.&.{ { 1.; 2 2 p +X+X+X+X_.c.",
"z.D.+X+X+X+XV.5 2 4 m %.%.&. .K K K K | { { { &.&.&.&.&.&.&.&.&.&.&.&.&.W.-X;X-X-X2X2X3X2Xy.8.9.8.;.&.{ { 1.; 2 2 p +X+X+X+X'.c.",
"z.D.+X+X+X+XV.5 2 4 m %.%.&. .K K K K ] &.&.{ &.&.&.&.&.&.&.&.&.&.&.&.&.~.3X3X3X1X3X3X3X3Xt.8.9.8.>.&.{ { 1.; 2 2 p +X+X+X+X].c.",
"z.D.+X+X+X+XV.5 2 4 m %.%.&. .P K K K ] &.&.&.&.&.&.&.&.&.{ &.&.&.{ { &.!.1X3X3X3X3X3X3X3Xu.8.9.q.>.&.&.{ 1.; 2 2 p +X+X+X+X[.c.",
"z.D.+X+X+X+XV.5 2 4 m %.%.&.] P K K P ] &.&.&.&.&.&.&.&.&.&.&.&.=.,.&.%.~.1X3X3X3X3X3X3X3Xu.8.9.q.>.&.&.{ 1.; 2 2 p +X+X+X+X[.c.",
"z.D.+X+X+X+XV.5 2 4 m %.%.&.[ Q ! Y Q }  . . .{ &.&.&.&.&.&.&.=.r.h.h.r./.3X3X3X3X-X&X&X&Xt.7.7.5.;.&.&.&.1.; 2 2 p +X+X+X+X[.c.",
"z.D.+X+X+X+XV.5 2 t m %.&.&.{ &.&.%.{ Y K L K _ &.&.&.&.&.&.&.$.;X3X3X3X3X3X3X3X>Xa.4.8.4.%.&.&.{ { &.&.&.1.; 2 2 p +X+X+X+X[.c.",
"z.D.+X+X+X+XV.5 2 4 m %.&.&.&.&.&.&.&.Y K K K _ &.{ %.&.%.%.&.3.-X3X3X3X3X3X3X3X>Xp.6.9.6.%.&.%.{ &.&.&.&.1.; 2 4 e +X+X+X+X[.c.",
"z.D.+X+X+X+XC.s a e m &.%.&.%.&.&.&.&.Y K K P / { { { { { { { +.=X3X3X3X3X3X4X3X>Xp.0.8.6.%.%.%.&.{ +.{ { e.: N g k +X+X+X+X[.c.",
"z.D.+X+X+X+XM.$ q w V e.2.2.,.&.&.&.&.Q P P P Q =.=.=.=.=.=.=.e.&X1X1X1X<X1X,X,X-Xi.8.4.6.%.%.%.&.=.r.e.2.R.% $ % $ +X+X+X+X[.S.",
"z.D.+X+X+X+X@X+X+X+XOX+ o @ . =.&.&.&.{ =.=.=.( P P P P P P P P W C C C ^ t.u.u.t.%.&.&.%.%.%.%.&.J - o X % +X+X@X@X@X@X+X+X[.S.",
"z.D.+X+X+X+X@X+X+X+X@Xa 2 > @ =.&.&.%.&.{ &.%.( P K K K K K K K L L I L ' 4.4.8.4.&.&.{ &.&.%.%.&.F i 1 2 h +X+X@X@X@X@X+X+X[.S.",
"z.D.+X+X+X+X+X+X+X+XOXa 6 , @ %.&.&.%.&.%.%.[ ( K K P P P P I I I L I L ' 4.0.8.4.&.&.{ &.&.&.{ &.F 0 2 4 q +X+X+X+X+X+X+X+X[.S.",
"z.D.+X+X+X+X+X+X+X+XOXS 8 f < <.=.=.=.%.%.%.{ ( P P P P P P P P I L I L [ 4.0.8.6.{ &.&.&.&.&.&.&.G g a a h +X+X+X+X+X+X+X+X[.S.",
"z.D.+X+X+X+X+X+X+X+X+X@X@X@XOXb v v v ' &.&.&.] } } | } } } } } | ` | ` [ *.;.*.*.%.&.%.&.c n n m T.+X@X@X+X+X+X+X+X+X+X+X+X[.S.",
"z.D.+X+X+X+X+X+X+X+X+X+X+X+X+Xr 9 2 , O.&.&.&.{ { %.%.%.{ { { { { { { { { { &.&.&.&.&.%.&.u 2 i f oX+X+X+X+X+X+X+X+X+X+X+X+X[.S.",
"z.D.+X+X+X+X+X+X+X+X+X+X+X+X+X8 9 4 9 O.&.&.%.{ &.&.%.&.%.%.%.%.&.&.&.{ &.[ &.&.&.&.&.%.&.2 : 2 a oX+X+X+X+X+X+X+X+X+X+X+X+X[.S.",
"z.D.+X+X+X+X+X+X+X+X+X+X+X+X+X* 7 7 * $.&.=.=.=.&.&.&.&.&.&.&.&.&.&.&.&.&.&.&.&.&.&.%.%.&.; * * 7 oX+X+X+X+X+X+X+X+X+X+X+X+X[.S.",
"z.D.+X+X+X+X+X+X+X+XXX+X+X+X+Xm.C.K.I.f.o.X.X.X.X.X.X.X.X.X.X.X.X.X.X.X.X.X.X.X.o.o.X.X.d.Z.L.L.K.OX+X+X+X+X+X+X+X+X+X+X+X+X[.S.",
"z.D.+X+X+X+X+X+X+XXXXX+X+X+X+X+X+X+X+Xs.> > 2 2 2 2 2 2 2 2 2 2 2 2 2 2 2 2 2 2 2 2 2 2 a +X+X+X+X+X+X+X+X+X+X+X+X+X+X+X+X+X[.S.",
"z.D.+X+X+X+X+X+X+X+X+X+X+X+X+X+X+X+X+Xs.4 2 2 2 2 2 2 2 2 2 2 2 2 2 2 2 2 2 2 2 2 2 2 4 0 +X+X+X+X+X+X+X+X+X+X+X+X+X+X+X+X+X[.S.",
"z.D.+X+X+X+X+X+X+X+X+X+X+X+X+X+X+X+X+XB.x l l l l l l l l l l l l l l l l l l l l l l l B +X+X+X+X+X+X+X+X+X+X+X+X+X+X+X+X+X[.S.",
"z.D.+X+X+X+X+X+X+X+X+X+X+X+X+X+X+X+X+X+X+X+X+X+X+X+X+X+X+X+X.X`.}.+X+X+X+X+X+X+X+X+X+X+X+X+X+X+X+X+X+X+X+X+X+X+X+X+X+X+X+X+X[.S.",
"z.D.+X+X+X+X+X+X+X+X+X+X+X+X+X+X+X+X+X+X+X+X+X+X+X+X+X+X+X+X.X`.}.+X+X+X+X+X+X+X+X+X+X+X+X+X+X+X+X+X+XXX+X+X+X+X+X+X+X+X+X+X[.S.",
"z.D.+X+X+X+X+X+X+X+X+X+X+X+X+X+X+X+X+X+X+X+X+X+X+X+X+X+X+X+X.X`.}.+X+X+X+X+X+X+X+X+X+X+X+X+X+X+X+X+X+X+X+X+X+X+X+X+X+X+X+X+X[.S.",
"z.D.+X+X+X+X+X+X+X+X+X+X+X+X+X+X+X+X+X+X+X+X+X+X+X+X+X+X+X+X.X`.}.+X+X+X+X+X+X+X+X+X+X+X+X+X+X+X+X+X+X+X+X+X+X+X+X+X+X+X+X+X[.S.",
"x.G.[.[.[.[.[.[.[.[.[.[.[.[.[.[.[.[.[.[.[.[.[.[.[.[.[.[.[.[.].J.`.[.[.[.[.[.[.[.[.[.[.[.[.[.[.[.[.[.[.[.[.[.[.[.[.[.[.[.[.[.).b.",
"l.z.c.c.c.c.c.c.c.c.c.c.c.c.c.c.c.c.c.c.c.c.c.c.c.z.z.z.z.z.c.G.z.z.z.z.z.z.z.z.z.z.z.z.z.z.z.z.z.z.z.z.z.z.z.z.z.z.z.z.z.z.z.l."
};
